T2
G21
G94
(------------------------)
( Drill                  )
(------------------------)
( pcb2gcode 1.1.4 )

( This file uses 6 drill bit sizes. )

G90     ( Absolute coordinates.        )

G00 Z1 ( Retract )

G00 Z1.000
G00 X0.060 Y0.000
G00 Z1.000
G01 Z-2.100 F200.000
G00 Z1.000

G00 Z1 ( Retract )

G00 Z1.000
G00 X42.605 Y51.435
G00 Z1.000
G01 Z-2.100 F200.000
G00 Z1.000
( X42.605 Y48.895 )
G00 Z1.000
G00 X42.605 Y48.895
G00 Z1.000
G01 Z-2.100 F200.000
G00 Z1.000
( X42.605 Y46.355 )
G00 Z1.000
G00 X42.605 Y46.355
G00 Z1.000
G01 Z-2.100 F200.000
G00 Z1.000
( X42.605 Y20.955 )
G00 Z1.000
G00 X42.605 Y20.955
G00 Z1.000
G01 Z-2.100 F200.000
G00 Z1.000
( X40.065 Y20.955 )
G00 Z1.000
G00 X40.065 Y20.955
G00 Z1.000
G01 Z-2.100 F200.000
G00 Z1.000
( X38.795 Y109.855 )
G00 Z1.000
G00 X38.795 Y109.855
G00 Z1.000
G01 Z-2.100 F200.000
G00 Z1.000
( X38.795 Y104.775 )
G00 Z1.000
G00 X38.795 Y104.775
G00 Z1.000
G01 Z-2.100 F200.000
G00 Z1.000
( X34.985 Y46.355 )
G00 Z1.000
G00 X34.985 Y46.355
G00 Z1.000
G01 Z-2.100 F200.000
G00 Z1.000
( X34.985 Y36.195 )
G00 Z1.000
G00 X34.985 Y36.195
G00 Z1.000
G01 Z-2.100 F200.000
G00 Z1.000
( X33.715 Y73.66 )
G00 Z1.000
G00 X33.715 Y73.660
G00 Z1.000
G01 Z-2.100 F200.000
G00 Z1.000
( X33.715 Y71.12 )
G00 Z1.000
G00 X33.715 Y71.120
G00 Z1.000
G01 Z-2.100 F200.000
G00 Z1.000
( X28.635 Y109.855 )
G00 Z1.000
G00 X28.635 Y109.855
G00 Z1.000
G01 Z-2.100 F200.000
G00 Z1.000
( X28.635 Y107.315 )
G00 Z1.000
G00 X28.635 Y107.315
G00 Z1.000
G01 Z-2.100 F200.000
G00 Z1.000
( X21.015 Y118.745 )
G00 Z1.000
G00 X21.015 Y118.745
G00 Z1.000
G01 Z-2.100 F200.000
G00 Z1.000
( X19.745 Y113.665 )
G00 Z1.000
G00 X19.745 Y113.665
G00 Z1.000
G01 Z-2.100 F200.000
G00 Z1.000
( X19.745 Y103.505 )
G00 Z1.000
G00 X19.745 Y103.505
G00 Z1.000
G01 Z-2.100 F200.000
G00 Z1.000
( X19.745 Y30.48 )
G00 Z1.000
G00 X19.745 Y30.480
G00 Z1.000
G01 Z-2.100 F200.000
G00 Z1.000
( X18.475 Y118.745 )
G00 Z1.000
G00 X18.475 Y118.745
G00 Z1.000
G01 Z-2.100 F200.000
G00 Z1.000
( X17.205 Y85.725 )
G00 Z1.000
G00 X17.205 Y85.725
G00 Z1.000
G01 Z-2.100 F200.000
G00 Z1.000
( X17.205 Y33.02 )
G00 Z1.000
G00 X17.205 Y33.020
G00 Z1.000
G01 Z-2.100 F200.000
G00 Z1.000
( X17.205 Y30.48 )
G00 Z1.000
G00 X17.205 Y30.480
G00 Z1.000
G01 Z-2.100 F200.000
G00 Z1.000
( X16.57 Y22.225 )
G00 Z1.000
G00 X16.570 Y22.225
G00 Z1.000
G01 Z-2.100 F200.000
G00 Z1.000
( X15.935 Y118.745 )
G00 Z1.000
G00 X15.935 Y118.745
G00 Z1.000
G01 Z-2.100 F200.000
G00 Z1.000
( X14.665 Y85.725 )
G00 Z1.000
G00 X14.665 Y85.725
G00 Z1.000
G01 Z-2.100 F200.000
G00 Z1.000
( X14.03 Y24.765 )
G00 Z1.000
G00 X14.030 Y24.765
G00 Z1.000
G01 Z-2.100 F200.000
G00 Z1.000
( X14.03 Y22.225 )
G00 Z1.000
G00 X14.030 Y22.225
G00 Z1.000
G01 Z-2.100 F200.000
G00 Z1.000
( X9.585 Y12.7 )
G00 Z1.000
G00 X9.585 Y12.700
G00 Z1.000
G01 Z-2.100 F200.000
G00 Z1.000
( X9.585 Y10.16 )
G00 Z1.000
G00 X9.585 Y10.160
G00 Z1.000
G01 Z-2.100 F200.000
G00 Z1.000
( X9.585 Y7.62 )
G00 Z1.000
G00 X9.585 Y7.620
G00 Z1.000
G01 Z-2.100 F200.000
G00 Z1.000
( X9.585 Y5.08 )
G00 Z1.000
G00 X9.585 Y5.080
G00 Z1.000
G01 Z-2.100 F200.000
G00 Z1.000
( X9.585 Y2.54 )
G00 Z1.000
G00 X9.585 Y2.540
G00 Z1.000
G01 Z-2.100 F200.000
G00 Z1.000

G00 Z1 ( Retract )

G00 Z1.000
G00 X38.795 Y83.185
G00 Z1.000
G01 Z-2.100 F200.000
G00 Z1.000
( X38.795 Y57.785 )
G00 Z1.000
G00 X38.795 Y57.785
G00 Z1.000
G01 Z-2.100 F200.000
G00 Z1.000
( X38.795 Y28.575 )
G00 Z1.000
G00 X38.795 Y28.575
G00 Z1.000
G01 Z-2.100 F200.000
G00 Z1.000
( X38.795 Y6.985 )
G00 Z1.000
G00 X38.795 Y6.985
G00 Z1.000
G01 Z-2.100 F200.000
G00 Z1.000
( X37.525 Y19.685 )
G00 Z1.000
G00 X37.525 Y19.685
G00 Z1.000
G01 Z-2.100 F200.000
G00 Z1.000
( X37.525 Y9.525 )
G00 Z1.000
G00 X37.525 Y9.525
G00 Z1.000
G01 Z-2.100 F200.000
G00 Z1.000
( X28.635 Y83.185 )
G00 Z1.000
G00 X28.635 Y83.185
G00 Z1.000
G01 Z-2.100 F200.000
G00 Z1.000
( X28.635 Y74.295 )
G00 Z1.000
G00 X28.635 Y74.295
G00 Z1.000
G01 Z-2.100 F200.000
G00 Z1.000
( X28.635 Y64.135 )
G00 Z1.000
G00 X28.635 Y64.135
G00 Z1.000
G01 Z-2.100 F200.000
G00 Z1.000
( X28.635 Y57.785 )
G00 Z1.000
G00 X28.635 Y57.785
G00 Z1.000
G01 Z-2.100 F200.000
G00 Z1.000
( X28.635 Y28.575 )
G00 Z1.000
G00 X28.635 Y28.575
G00 Z1.000
G01 Z-2.100 F200.000
G00 Z1.000
( X28.635 Y6.985 )
G00 Z1.000
G00 X28.635 Y6.985
G00 Z1.000
G01 Z-2.100 F200.000
G00 Z1.000

G00 Z1 ( Retract )

G00 Z1.000
G00 X47.685 Y109.855
G00 Z1.000
G01 Z-2.100 F200.000
G00 Z1.000
( X47.685 Y107.315 )
G00 Z1.000
G00 X47.685 Y107.315
G00 Z1.000
G01 Z-2.100 F200.000
G00 Z1.000
( X47.685 Y104.775 )
G00 Z1.000
G00 X47.685 Y104.775
G00 Z1.000
G01 Z-2.100 F200.000
G00 Z1.000
( X47.685 Y97.155 )
G00 Z1.000
G00 X47.685 Y97.155
G00 Z1.000
G01 Z-2.100 F200.000
G00 Z1.000
( X47.685 Y92.075 )
G00 Z1.000
G00 X47.685 Y92.075
G00 Z1.000
G01 Z-2.100 F200.000
G00 Z1.000
( X47.685 Y84.455 )
G00 Z1.000
G00 X47.685 Y84.455
G00 Z1.000
G01 Z-2.100 F200.000
G00 Z1.000
( X47.685 Y81.915 )
G00 Z1.000
G00 X47.685 Y81.915
G00 Z1.000
G01 Z-2.100 F200.000
G00 Z1.000
( X47.685 Y79.375 )
G00 Z1.000
G00 X47.685 Y79.375
G00 Z1.000
G01 Z-2.100 F200.000
G00 Z1.000
( X47.685 Y71.755 )
G00 Z1.000
G00 X47.685 Y71.755
G00 Z1.000
G01 Z-2.100 F200.000
G00 Z1.000
( X47.685 Y66.675 )
G00 Z1.000
G00 X47.685 Y66.675
G00 Z1.000
G01 Z-2.100 F200.000
G00 Z1.000
( X47.685 Y59.055 )
G00 Z1.000
G00 X47.685 Y59.055
G00 Z1.000
G01 Z-2.100 F200.000
G00 Z1.000
( X47.685 Y56.515 )
G00 Z1.000
G00 X47.685 Y56.515
G00 Z1.000
G01 Z-2.100 F200.000
G00 Z1.000
( X47.685 Y53.975 )
G00 Z1.000
G00 X47.685 Y53.975
G00 Z1.000
G01 Z-2.100 F200.000
G00 Z1.000
( X47.685 Y46.355 )
G00 Z1.000
G00 X47.685 Y46.355
G00 Z1.000
G01 Z-2.100 F200.000
G00 Z1.000
( X47.685 Y41.275 )
G00 Z1.000
G00 X47.685 Y41.275
G00 Z1.000
G01 Z-2.100 F200.000
G00 Z1.000
( X47.685 Y33.655 )
G00 Z1.000
G00 X47.685 Y33.655
G00 Z1.000
G01 Z-2.100 F200.000
G00 Z1.000
( X47.685 Y31.115 )
G00 Z1.000
G00 X47.685 Y31.115
G00 Z1.000
G01 Z-2.100 F200.000
G00 Z1.000
( X47.685 Y28.575 )
G00 Z1.000
G00 X47.685 Y28.575
G00 Z1.000
G01 Z-2.100 F200.000
G00 Z1.000
( X47.685 Y20.955 )
G00 Z1.000
G00 X47.685 Y20.955
G00 Z1.000
G01 Z-2.100 F200.000
G00 Z1.000
( X47.685 Y15.875 )
G00 Z1.000
G00 X47.685 Y15.875
G00 Z1.000
G01 Z-2.100 F200.000
G00 Z1.000
( X47.685 Y8.255 )
G00 Z1.000
G00 X47.685 Y8.255
G00 Z1.000
G01 Z-2.100 F200.000
G00 Z1.000
( X47.685 Y5.715 )
G00 Z1.000
G00 X47.685 Y5.715
G00 Z1.000
G01 Z-2.100 F200.000
G00 Z1.000
( X47.685 Y3.175 )
G00 Z1.000
G00 X47.685 Y3.175
G00 Z1.000
G01 Z-2.100 F200.000
G00 Z1.000
( X42.605 Y89.535 )
G00 Z1.000
G00 X42.605 Y89.535
G00 Z1.000
G01 Z-2.100 F200.000
G00 Z1.000
( X42.605 Y79.375 )
G00 Z1.000
G00 X42.605 Y79.375
G00 Z1.000
G01 Z-2.100 F200.000
G00 Z1.000
( X42.605 Y64.135 )
G00 Z1.000
G00 X42.605 Y64.135
G00 Z1.000
G01 Z-2.100 F200.000
G00 Z1.000
( X42.605 Y53.975 )
G00 Z1.000
G00 X42.605 Y53.975
G00 Z1.000
G01 Z-2.100 F200.000
G00 Z1.000
( X42.605 Y38.735 )
G00 Z1.000
G00 X42.605 Y38.735
G00 Z1.000
G01 Z-2.100 F200.000
G00 Z1.000
( X42.605 Y28.575 )
G00 Z1.000
G00 X42.605 Y28.575
G00 Z1.000
G01 Z-2.100 F200.000
G00 Z1.000
( X42.605 Y13.335 )
G00 Z1.000
G00 X42.605 Y13.335
G00 Z1.000
G01 Z-2.100 F200.000
G00 Z1.000
( X42.605 Y3.175 )
G00 Z1.000
G00 X42.605 Y3.175
G00 Z1.000
G01 Z-2.100 F200.000
G00 Z1.000
( X40.7 Y67.31 )
G00 Z1.000
G00 X40.700 Y67.310
G00 Z1.000
G01 Z-2.100 F200.000
G00 Z1.000
( X38.795 Y79.375 )
G00 Z1.000
G00 X38.795 Y79.375
G00 Z1.000
G01 Z-2.100 F200.000
G00 Z1.000
( X38.795 Y53.975 )
G00 Z1.000
G00 X38.795 Y53.975
G00 Z1.000
G01 Z-2.100 F200.000
G00 Z1.000
( X38.795 Y24.765 )
G00 Z1.000
G00 X38.795 Y24.765
G00 Z1.000
G01 Z-2.100 F200.000
G00 Z1.000
( X38.795 Y3.175 )
G00 Z1.000
G00 X38.795 Y3.175
G00 Z1.000
G01 Z-2.100 F200.000
G00 Z1.000
( X30.54 Y67.31 )
G00 Z1.000
G00 X30.540 Y67.310
G00 Z1.000
G01 Z-2.100 F200.000
G00 Z1.000
( X28.635 Y79.375 )
G00 Z1.000
G00 X28.635 Y79.375
G00 Z1.000
G01 Z-2.100 F200.000
G00 Z1.000
( X28.635 Y53.975 )
G00 Z1.000
G00 X28.635 Y53.975
G00 Z1.000
G01 Z-2.100 F200.000
G00 Z1.000
( X28.635 Y24.765 )
G00 Z1.000
G00 X28.635 Y24.765
G00 Z1.000
G01 Z-2.100 F200.000
G00 Z1.000
( X28.635 Y3.175 )
G00 Z1.000
G00 X28.635 Y3.175
G00 Z1.000
G01 Z-2.100 F200.000
G00 Z1.000
( X22.92 Y10.16 )
G00 Z1.000
G00 X22.920 Y10.160
G00 Z1.000
G01 Z-2.100 F200.000
G00 Z1.000
( X22.92 Y6.985 )
G00 Z1.000
G00 X22.920 Y6.985
G00 Z1.000
G01 Z-2.100 F200.000
G00 Z1.000
( X22.92 Y3.81 )
G00 Z1.000
G00 X22.920 Y3.810
G00 Z1.000
G01 Z-2.100 F200.000
G00 Z1.000
( X20.38 Y60.325 )
G00 Z1.000
G00 X20.380 Y60.325
G00 Z1.000
G01 Z-2.100 F200.000
G00 Z1.000
( X20.38 Y50.165 )
G00 Z1.000
G00 X20.380 Y50.165
G00 Z1.000
G01 Z-2.100 F200.000
G00 Z1.000
( X17.205 Y60.325 )
G00 Z1.000
G00 X17.205 Y60.325
G00 Z1.000
G01 Z-2.100 F200.000
G00 Z1.000
( X17.205 Y50.165 )
G00 Z1.000
G00 X17.205 Y50.165
G00 Z1.000
G01 Z-2.100 F200.000
G00 Z1.000
( X14.03 Y60.325 )
G00 Z1.000
G00 X14.030 Y60.325
G00 Z1.000
G01 Z-2.100 F200.000
G00 Z1.000
( X14.03 Y50.165 )
G00 Z1.000
G00 X14.030 Y50.165
G00 Z1.000
G01 Z-2.100 F200.000
G00 Z1.000
( X14.03 Y32.385 )
G00 Z1.000
G00 X14.030 Y32.385
G00 Z1.000
G01 Z-2.100 F200.000
G00 Z1.000
( X14.03 Y27.305 )
G00 Z1.000
G00 X14.030 Y27.305
G00 Z1.000
G01 Z-2.100 F200.000
G00 Z1.000
( X14.03 Y19.05 )
G00 Z1.000
G00 X14.030 Y19.050
G00 Z1.000
G01 Z-2.100 F200.000
G00 Z1.000
( X12.76 Y10.16 )
G00 Z1.000
G00 X12.760 Y10.160
G00 Z1.000
G01 Z-2.100 F200.000
G00 Z1.000
( X12.76 Y6.985 )
G00 Z1.000
G00 X12.760 Y6.985
G00 Z1.000
G01 Z-2.100 F200.000
G00 Z1.000
( X12.76 Y3.81 )
G00 Z1.000
G00 X12.760 Y3.810
G00 Z1.000
G01 Z-2.100 F200.000
G00 Z1.000
( X10.855 Y60.325 )
G00 Z1.000
G00 X10.855 Y60.325
G00 Z1.000
G01 Z-2.100 F200.000
G00 Z1.000
( X10.855 Y50.165 )
G00 Z1.000
G00 X10.855 Y50.165
G00 Z1.000
G01 Z-2.100 F200.000
G00 Z1.000
( X3.87 Y32.385 )
G00 Z1.000
G00 X3.870 Y32.385
G00 Z1.000
G01 Z-2.100 F200.000
G00 Z1.000
( X3.87 Y27.305 )
G00 Z1.000
G00 X3.870 Y27.305
G00 Z1.000
G01 Z-2.100 F200.000
G00 Z1.000
( X3.87 Y19.05 )
G00 Z1.000
G00 X3.870 Y19.050
G00 Z1.000
G01 Z-2.100 F200.000
G00 Z1.000

G00 Z1 ( Retract )

G00 Z1.000
G00 X47.685 Y117.475
G00 Z1.000
G01 Z-2.100 F200.000
G00 Z1.000
( X27.365 Y117.475 )
G00 Z1.000
G00 X27.365 Y117.475
G00 Z1.000
G01 Z-2.100 F200.000
G00 Z1.000

G00 Z1 ( Retract )

G00 Z1.000
G00 X40.065 Y97.155
G00 Z1.000
G01 Z-2.100 F200.000
G00 Z1.000
( X34.985 Y97.155 )
G00 Z1.000
G00 X34.985 Y97.155
G00 Z1.000
G01 Z-2.100 F200.000
G00 Z1.000
( X24.825 Y97.155 )
G00 Z1.000
G00 X24.825 Y97.155
G00 Z1.000
G01 Z-2.100 F200.000
G00 Z1.000
( X19.745 Y97.155 )
G00 Z1.000
G00 X19.745 Y97.155
G00 Z1.000
G01 Z-2.100 F200.000
G00 Z1.000

G00 Z1 ( All done -- retract )

