G21
G94
(------------------------)
( Outline                )
(------------------------)
( pcb2gcode 1.1.4 )

G90     ( Absolute coordinates.        )

G00 Z1 ( retract )

G00 X-0.118 Y121.327 ( rapid move to begin. )
G01 Z-0.15 F200 ( plunge. )
X-0.118 Y121.327
X-0.144 Y121.327
X-0.144 Y-0.06
X-0.118 Y-0.06
X-0.118 Y-0.11
X-0.093 Y-0.11
X-0.093 Y-0.161
X-0.042 Y-0.161
X-0.042 Y-0.187
X0.009 Y-0.187
X0.009 Y-0.212
X59.165 Y-0.212
X59.165 Y-0.187
X59.216 Y-0.187
X59.216 Y-0.161
X59.267 Y-0.161
X59.267 Y-0.11
X59.292 Y-0.11
X59.292 Y-0.06
X59.318 Y-0.06
X59.318 Y121.327
X59.292 Y121.327
X59.292 Y121.378
X59.267 Y121.378
X59.267 Y121.429
X59.216 Y121.429
X59.216 Y121.454
X59.165 Y121.454
X59.165 Y121.479
X0.009 Y121.479
X0.009 Y121.454
X-0.042 Y121.454
X-0.042 Y121.429
X-0.093 Y121.429
X-0.093 Y121.378
X-0.118 Y121.378
X-0.118 Y121.327

G00 Z1 ( retract )

(------------------------)
( Drill                  )
(------------------------)
( pcb2gcode 1.1.4 )

( This file uses 6 drill bit sizes. )

G90     ( Absolute coordinates.        )

G00 Z1 ( Retract )

G00 Z1.000
G00 X0.060 Y0.000
G00 Z1.000
G01 Z-0.200 F200.000
G00 Z1.000

G00 Z1 ( Retract )

G00 Z1.000
G00 X42.605 Y51.435
G00 Z1.000
G01 Z-0.200 F200.000
G00 Z1.000
( X42.605 Y48.895 )
G00 Z1.000
G00 X42.605 Y48.895
G00 Z1.000
G01 Z-0.200 F200.000
G00 Z1.000
( X42.605 Y46.355 )
G00 Z1.000
G00 X42.605 Y46.355
G00 Z1.000
G01 Z-0.200 F200.000
G00 Z1.000
( X42.605 Y20.955 )
G00 Z1.000
G00 X42.605 Y20.955
G00 Z1.000
G01 Z-0.200 F200.000
G00 Z1.000
( X40.065 Y20.955 )
G00 Z1.000
G00 X40.065 Y20.955
G00 Z1.000
G01 Z-0.200 F200.000
G00 Z1.000
( X38.795 Y109.855 )
G00 Z1.000
G00 X38.795 Y109.855
G00 Z1.000
G01 Z-0.200 F200.000
G00 Z1.000
( X38.795 Y104.775 )
G00 Z1.000
G00 X38.795 Y104.775
G00 Z1.000
G01 Z-0.200 F200.000
G00 Z1.000
( X34.985 Y46.355 )
G00 Z1.000
G00 X34.985 Y46.355
G00 Z1.000
G01 Z-0.200 F200.000
G00 Z1.000
( X34.985 Y36.195 )
G00 Z1.000
G00 X34.985 Y36.195
G00 Z1.000
G01 Z-0.200 F200.000
G00 Z1.000
( X33.715 Y73.66 )
G00 Z1.000
G00 X33.715 Y73.660
G00 Z1.000
G01 Z-0.200 F200.000
G00 Z1.000
( X33.715 Y71.12 )
G00 Z1.000
G00 X33.715 Y71.120
G00 Z1.000
G01 Z-0.200 F200.000
G00 Z1.000
( X28.635 Y109.855 )
G00 Z1.000
G00 X28.635 Y109.855
G00 Z1.000
G01 Z-0.200 F200.000
G00 Z1.000
( X28.635 Y107.315 )
G00 Z1.000
G00 X28.635 Y107.315
G00 Z1.000
G01 Z-0.200 F200.000
G00 Z1.000
( X21.015 Y118.745 )
G00 Z1.000
G00 X21.015 Y118.745
G00 Z1.000
G01 Z-0.200 F200.000
G00 Z1.000
( X19.745 Y113.665 )
G00 Z1.000
G00 X19.745 Y113.665
G00 Z1.000
G01 Z-0.200 F200.000
G00 Z1.000
( X19.745 Y103.505 )
G00 Z1.000
G00 X19.745 Y103.505
G00 Z1.000
G01 Z-0.200 F200.000
G00 Z1.000
( X19.745 Y30.48 )
G00 Z1.000
G00 X19.745 Y30.480
G00 Z1.000
G01 Z-0.200 F200.000
G00 Z1.000
( X18.475 Y118.745 )
G00 Z1.000
G00 X18.475 Y118.745
G00 Z1.000
G01 Z-0.200 F200.000
G00 Z1.000
( X17.205 Y85.725 )
G00 Z1.000
G00 X17.205 Y85.725
G00 Z1.000
G01 Z-0.200 F200.000
G00 Z1.000
( X17.205 Y33.02 )
G00 Z1.000
G00 X17.205 Y33.020
G00 Z1.000
G01 Z-0.200 F200.000
G00 Z1.000
( X17.205 Y30.48 )
G00 Z1.000
G00 X17.205 Y30.480
G00 Z1.000
G01 Z-0.200 F200.000
G00 Z1.000
( X16.57 Y22.225 )
G00 Z1.000
G00 X16.570 Y22.225
G00 Z1.000
G01 Z-0.200 F200.000
G00 Z1.000
( X15.935 Y118.745 )
G00 Z1.000
G00 X15.935 Y118.745
G00 Z1.000
G01 Z-0.200 F200.000
G00 Z1.000
( X14.665 Y85.725 )
G00 Z1.000
G00 X14.665 Y85.725
G00 Z1.000
G01 Z-0.200 F200.000
G00 Z1.000
( X14.03 Y24.765 )
G00 Z1.000
G00 X14.030 Y24.765
G00 Z1.000
G01 Z-0.200 F200.000
G00 Z1.000
( X14.03 Y22.225 )
G00 Z1.000
G00 X14.030 Y22.225
G00 Z1.000
G01 Z-0.200 F200.000
G00 Z1.000
( X9.585 Y12.7 )
G00 Z1.000
G00 X9.585 Y12.700
G00 Z1.000
G01 Z-0.200 F200.000
G00 Z1.000
( X9.585 Y10.16 )
G00 Z1.000
G00 X9.585 Y10.160
G00 Z1.000
G01 Z-0.200 F200.000
G00 Z1.000
( X9.585 Y7.62 )
G00 Z1.000
G00 X9.585 Y7.620
G00 Z1.000
G01 Z-0.200 F200.000
G00 Z1.000
( X9.585 Y5.08 )
G00 Z1.000
G00 X9.585 Y5.080
G00 Z1.000
G01 Z-0.200 F200.000
G00 Z1.000
( X9.585 Y2.54 )
G00 Z1.000
G00 X9.585 Y2.540
G00 Z1.000
G01 Z-0.200 F200.000
G00 Z1.000

G00 Z1 ( Retract )

G00 Z1.000
G00 X38.795 Y83.185
G00 Z1.000
G01 Z-0.200 F200.000
G00 Z1.000
( X38.795 Y57.785 )
G00 Z1.000
G00 X38.795 Y57.785
G00 Z1.000
G01 Z-0.200 F200.000
G00 Z1.000
( X38.795 Y28.575 )
G00 Z1.000
G00 X38.795 Y28.575
G00 Z1.000
G01 Z-0.200 F200.000
G00 Z1.000
( X38.795 Y6.985 )
G00 Z1.000
G00 X38.795 Y6.985
G00 Z1.000
G01 Z-0.200 F200.000
G00 Z1.000
( X37.525 Y19.685 )
G00 Z1.000
G00 X37.525 Y19.685
G00 Z1.000
G01 Z-0.200 F200.000
G00 Z1.000
( X37.525 Y9.525 )
G00 Z1.000
G00 X37.525 Y9.525
G00 Z1.000
G01 Z-0.200 F200.000
G00 Z1.000
( X28.635 Y83.185 )
G00 Z1.000
G00 X28.635 Y83.185
G00 Z1.000
G01 Z-0.200 F200.000
G00 Z1.000
( X28.635 Y74.295 )
G00 Z1.000
G00 X28.635 Y74.295
G00 Z1.000
G01 Z-0.200 F200.000
G00 Z1.000
( X28.635 Y64.135 )
G00 Z1.000
G00 X28.635 Y64.135
G00 Z1.000
G01 Z-0.200 F200.000
G00 Z1.000
( X28.635 Y57.785 )
G00 Z1.000
G00 X28.635 Y57.785
G00 Z1.000
G01 Z-0.200 F200.000
G00 Z1.000
( X28.635 Y28.575 )
G00 Z1.000
G00 X28.635 Y28.575
G00 Z1.000
G01 Z-0.200 F200.000
G00 Z1.000
( X28.635 Y6.985 )
G00 Z1.000
G00 X28.635 Y6.985
G00 Z1.000
G01 Z-0.200 F200.000
G00 Z1.000

G00 Z1 ( Retract )

G00 Z1.000
G00 X47.685 Y109.855
G00 Z1.000
G01 Z-0.200 F200.000
G00 Z1.000
( X47.685 Y107.315 )
G00 Z1.000
G00 X47.685 Y107.315
G00 Z1.000
G01 Z-0.200 F200.000
G00 Z1.000
( X47.685 Y104.775 )
G00 Z1.000
G00 X47.685 Y104.775
G00 Z1.000
G01 Z-0.200 F200.000
G00 Z1.000
( X47.685 Y97.155 )
G00 Z1.000
G00 X47.685 Y97.155
G00 Z1.000
G01 Z-0.200 F200.000
G00 Z1.000
( X47.685 Y92.075 )
G00 Z1.000
G00 X47.685 Y92.075
G00 Z1.000
G01 Z-0.200 F200.000
G00 Z1.000
( X47.685 Y84.455 )
G00 Z1.000
G00 X47.685 Y84.455
G00 Z1.000
G01 Z-0.200 F200.000
G00 Z1.000
( X47.685 Y81.915 )
G00 Z1.000
G00 X47.685 Y81.915
G00 Z1.000
G01 Z-0.200 F200.000
G00 Z1.000
( X47.685 Y79.375 )
G00 Z1.000
G00 X47.685 Y79.375
G00 Z1.000
G01 Z-0.200 F200.000
G00 Z1.000
( X47.685 Y71.755 )
G00 Z1.000
G00 X47.685 Y71.755
G00 Z1.000
G01 Z-0.200 F200.000
G00 Z1.000
( X47.685 Y66.675 )
G00 Z1.000
G00 X47.685 Y66.675
G00 Z1.000
G01 Z-0.200 F200.000
G00 Z1.000
( X47.685 Y59.055 )
G00 Z1.000
G00 X47.685 Y59.055
G00 Z1.000
G01 Z-0.200 F200.000
G00 Z1.000
( X47.685 Y56.515 )
G00 Z1.000
G00 X47.685 Y56.515
G00 Z1.000
G01 Z-0.200 F200.000
G00 Z1.000
( X47.685 Y53.975 )
G00 Z1.000
G00 X47.685 Y53.975
G00 Z1.000
G01 Z-0.200 F200.000
G00 Z1.000
( X47.685 Y46.355 )
G00 Z1.000
G00 X47.685 Y46.355
G00 Z1.000
G01 Z-0.200 F200.000
G00 Z1.000
( X47.685 Y41.275 )
G00 Z1.000
G00 X47.685 Y41.275
G00 Z1.000
G01 Z-0.200 F200.000
G00 Z1.000
( X47.685 Y33.655 )
G00 Z1.000
G00 X47.685 Y33.655
G00 Z1.000
G01 Z-0.200 F200.000
G00 Z1.000
( X47.685 Y31.115 )
G00 Z1.000
G00 X47.685 Y31.115
G00 Z1.000
G01 Z-0.200 F200.000
G00 Z1.000
( X47.685 Y28.575 )
G00 Z1.000
G00 X47.685 Y28.575
G00 Z1.000
G01 Z-0.200 F200.000
G00 Z1.000
( X47.685 Y20.955 )
G00 Z1.000
G00 X47.685 Y20.955
G00 Z1.000
G01 Z-0.200 F200.000
G00 Z1.000
( X47.685 Y15.875 )
G00 Z1.000
G00 X47.685 Y15.875
G00 Z1.000
G01 Z-0.200 F200.000
G00 Z1.000
( X47.685 Y8.255 )
G00 Z1.000
G00 X47.685 Y8.255
G00 Z1.000
G01 Z-0.200 F200.000
G00 Z1.000
( X47.685 Y5.715 )
G00 Z1.000
G00 X47.685 Y5.715
G00 Z1.000
G01 Z-0.200 F200.000
G00 Z1.000
( X47.685 Y3.175 )
G00 Z1.000
G00 X47.685 Y3.175
G00 Z1.000
G01 Z-0.200 F200.000
G00 Z1.000
( X42.605 Y89.535 )
G00 Z1.000
G00 X42.605 Y89.535
G00 Z1.000
G01 Z-0.200 F200.000
G00 Z1.000
( X42.605 Y79.375 )
G00 Z1.000
G00 X42.605 Y79.375
G00 Z1.000
G01 Z-0.200 F200.000
G00 Z1.000
( X42.605 Y64.135 )
G00 Z1.000
G00 X42.605 Y64.135
G00 Z1.000
G01 Z-0.200 F200.000
G00 Z1.000
( X42.605 Y53.975 )
G00 Z1.000
G00 X42.605 Y53.975
G00 Z1.000
G01 Z-0.200 F200.000
G00 Z1.000
( X42.605 Y38.735 )
G00 Z1.000
G00 X42.605 Y38.735
G00 Z1.000
G01 Z-0.200 F200.000
G00 Z1.000
( X42.605 Y28.575 )
G00 Z1.000
G00 X42.605 Y28.575
G00 Z1.000
G01 Z-0.200 F200.000
G00 Z1.000
( X42.605 Y13.335 )
G00 Z1.000
G00 X42.605 Y13.335
G00 Z1.000
G01 Z-0.200 F200.000
G00 Z1.000
( X42.605 Y3.175 )
G00 Z1.000
G00 X42.605 Y3.175
G00 Z1.000
G01 Z-0.200 F200.000
G00 Z1.000
( X40.7 Y67.31 )
G00 Z1.000
G00 X40.700 Y67.310
G00 Z1.000
G01 Z-0.200 F200.000
G00 Z1.000
( X38.795 Y79.375 )
G00 Z1.000
G00 X38.795 Y79.375
G00 Z1.000
G01 Z-0.200 F200.000
G00 Z1.000
( X38.795 Y53.975 )
G00 Z1.000
G00 X38.795 Y53.975
G00 Z1.000
G01 Z-0.200 F200.000
G00 Z1.000
( X38.795 Y24.765 )
G00 Z1.000
G00 X38.795 Y24.765
G00 Z1.000
G01 Z-0.200 F200.000
G00 Z1.000
( X38.795 Y3.175 )
G00 Z1.000
G00 X38.795 Y3.175
G00 Z1.000
G01 Z-0.200 F200.000
G00 Z1.000
( X30.54 Y67.31 )
G00 Z1.000
G00 X30.540 Y67.310
G00 Z1.000
G01 Z-0.200 F200.000
G00 Z1.000
( X28.635 Y79.375 )
G00 Z1.000
G00 X28.635 Y79.375
G00 Z1.000
G01 Z-0.200 F200.000
G00 Z1.000
( X28.635 Y53.975 )
G00 Z1.000
G00 X28.635 Y53.975
G00 Z1.000
G01 Z-0.200 F200.000
G00 Z1.000
( X28.635 Y24.765 )
G00 Z1.000
G00 X28.635 Y24.765
G00 Z1.000
G01 Z-0.200 F200.000
G00 Z1.000
( X28.635 Y3.175 )
G00 Z1.000
G00 X28.635 Y3.175
G00 Z1.000
G01 Z-0.200 F200.000
G00 Z1.000
( X22.92 Y10.16 )
G00 Z1.000
G00 X22.920 Y10.160
G00 Z1.000
G01 Z-0.200 F200.000
G00 Z1.000
( X22.92 Y6.985 )
G00 Z1.000
G00 X22.920 Y6.985
G00 Z1.000
G01 Z-0.200 F200.000
G00 Z1.000
( X22.92 Y3.81 )
G00 Z1.000
G00 X22.920 Y3.810
G00 Z1.000
G01 Z-0.200 F200.000
G00 Z1.000
( X20.38 Y60.325 )
G00 Z1.000
G00 X20.380 Y60.325
G00 Z1.000
G01 Z-0.200 F200.000
G00 Z1.000
( X20.38 Y50.165 )
G00 Z1.000
G00 X20.380 Y50.165
G00 Z1.000
G01 Z-0.200 F200.000
G00 Z1.000
( X17.205 Y60.325 )
G00 Z1.000
G00 X17.205 Y60.325
G00 Z1.000
G01 Z-0.200 F200.000
G00 Z1.000
( X17.205 Y50.165 )
G00 Z1.000
G00 X17.205 Y50.165
G00 Z1.000
G01 Z-0.200 F200.000
G00 Z1.000
( X14.03 Y60.325 )
G00 Z1.000
G00 X14.030 Y60.325
G00 Z1.000
G01 Z-0.200 F200.000
G00 Z1.000
( X14.03 Y50.165 )
G00 Z1.000
G00 X14.030 Y50.165
G00 Z1.000
G01 Z-0.200 F200.000
G00 Z1.000
( X14.03 Y32.385 )
G00 Z1.000
G00 X14.030 Y32.385
G00 Z1.000
G01 Z-0.200 F200.000
G00 Z1.000
( X14.03 Y27.305 )
G00 Z1.000
G00 X14.030 Y27.305
G00 Z1.000
G01 Z-0.200 F200.000
G00 Z1.000
( X14.03 Y19.05 )
G00 Z1.000
G00 X14.030 Y19.050
G00 Z1.000
G01 Z-0.200 F200.000
G00 Z1.000
( X12.76 Y10.16 )
G00 Z1.000
G00 X12.760 Y10.160
G00 Z1.000
G01 Z-0.200 F200.000
G00 Z1.000
( X12.76 Y6.985 )
G00 Z1.000
G00 X12.760 Y6.985
G00 Z1.000
G01 Z-0.200 F200.000
G00 Z1.000
( X12.76 Y3.81 )
G00 Z1.000
G00 X12.760 Y3.810
G00 Z1.000
G01 Z-0.200 F200.000
G00 Z1.000
( X10.855 Y60.325 )
G00 Z1.000
G00 X10.855 Y60.325
G00 Z1.000
G01 Z-0.200 F200.000
G00 Z1.000
( X10.855 Y50.165 )
G00 Z1.000
G00 X10.855 Y50.165
G00 Z1.000
G01 Z-0.200 F200.000
G00 Z1.000
( X3.87 Y32.385 )
G00 Z1.000
G00 X3.870 Y32.385
G00 Z1.000
G01 Z-0.200 F200.000
G00 Z1.000
( X3.87 Y27.305 )
G00 Z1.000
G00 X3.870 Y27.305
G00 Z1.000
G01 Z-0.200 F200.000
G00 Z1.000
( X3.87 Y19.05 )
G00 Z1.000
G00 X3.870 Y19.050
G00 Z1.000
G01 Z-0.200 F200.000
G00 Z1.000

G00 Z1 ( Retract )

G00 Z1.000
G00 X47.685 Y117.475
G00 Z1.000
G01 Z-0.200 F200.000
G00 Z1.000
( X27.365 Y117.475 )
G00 Z1.000
G00 X27.365 Y117.475
G00 Z1.000
G01 Z-0.200 F200.000
G00 Z1.000

G00 Z1 ( Retract )

G00 Z1.000
G00 X40.065 Y97.155
G00 Z1.000
G01 Z-0.200 F200.000
G00 Z1.000
( X34.985 Y97.155 )
G00 Z1.000
G00 X34.985 Y97.155
G00 Z1.000
G01 Z-0.200 F200.000
G00 Z1.000
( X24.825 Y97.155 )
G00 Z1.000
G00 X24.825 Y97.155
G00 Z1.000
G01 Z-0.200 F200.000
G00 Z1.000
( X19.745 Y97.155 )
G00 Z1.000
G00 X19.745 Y97.155
G00 Z1.000
G01 Z-0.200 F200.000
G00 Z1.000

G00 Z1 ( All done -- retract )

(------------------------)
( Engrave                )
(------------------------)
( pcb2gcode 1.1.4 )

G90     ( Absolute coordinates.        )

G00 Z1 ( retract )

G00 X34.248 Y120.387 ( rapid move to begin. )
G01 Z-0.15 F200 ( plunge. )
X34.248 Y120.387
X34.223 Y120.387
X34.223 Y120.362
X34.197 Y120.362
X34.197 Y120.336
X34.172 Y120.336
X34.172 Y120.311
X34.146 Y120.311
X34.146 Y120.286
X34.121 Y120.286
X34.121 Y120.26
X34.096 Y120.26
X34.096 Y120.235
X34.07 Y120.235
X34.07 Y120.209
X34.045 Y120.209
X34.045 Y120.184
X34.019 Y120.184
X34.019 Y120.159
X33.994 Y120.159
X33.994 Y120.133
X33.969 Y120.133
X33.969 Y120.108
X33.943 Y120.108
X33.943 Y120.082
X33.918 Y120.082
X33.918 Y120.057
X33.892 Y120.057
X33.892 Y120.032
X33.867 Y120.032
X33.867 Y120.006
X33.842 Y120.006
X33.842 Y119.981
X33.816 Y119.981
X33.816 Y119.955
X33.791 Y119.955
X33.791 Y119.93
X33.765 Y119.93
X33.765 Y119.905
X33.74 Y119.905
X33.74 Y119.879
X33.715 Y119.879
X33.715 Y119.854
X33.689 Y119.854
X33.689 Y119.828
X33.664 Y119.828
X33.664 Y119.803
X33.638 Y119.803
X33.638 Y119.778
X33.613 Y119.778
X33.613 Y119.752
X33.588 Y119.752
X33.588 Y119.727
X33.562 Y119.727
X33.562 Y119.701
X33.537 Y119.701
X33.537 Y119.676
X33.511 Y119.676
X33.511 Y119.651
X33.486 Y119.651
X33.486 Y119.625
X33.461 Y119.625
X33.461 Y119.6
X33.435 Y119.6
X33.435 Y119.574
X33.41 Y119.574
X33.41 Y119.549
X33.384 Y119.549
X33.384 Y119.524
X33.359 Y119.524
X33.359 Y119.498
X33.334 Y119.498
X33.334 Y119.473
X33.308 Y119.473
X33.308 Y119.447
X33.283 Y119.447
X33.283 Y119.422
X32.546 Y119.422
X32.546 Y119.6
X31.352 Y119.6
X31.352 Y119.244
X31.327 Y119.244
X31.327 Y119.168
X31.302 Y119.168
X31.302 Y119.092
X31.276 Y119.092
X31.276 Y118.406
X31.302 Y118.406
X31.302 Y118.33
X31.327 Y118.33
X31.327 Y118.254
X31.352 Y118.254
X31.352 Y117.898
X32.546 Y117.898
X32.546 Y118.076
X34.096 Y118.076
X34.096 Y118.101
X34.172 Y118.101
X34.172 Y118.127
X34.223 Y118.127
X34.223 Y118.152
X34.248 Y118.152
X34.248 Y118.177
X34.299 Y118.177
X34.299 Y118.203
X34.324 Y118.203
X34.324 Y118.228
X34.35 Y118.228
X34.35 Y118.254
X34.375 Y118.254
X34.375 Y118.279
X34.4 Y118.279
X34.4 Y118.304
X34.426 Y118.304
X34.426 Y118.33
X34.451 Y118.33
X34.451 Y118.355
X34.477 Y118.355
X34.477 Y118.381
X34.502 Y118.381
X34.502 Y118.406
X34.527 Y118.406
X34.527 Y118.431
X34.553 Y118.431
X34.553 Y118.457
X34.578 Y118.457
X34.578 Y118.482
X34.604 Y118.482
X34.604 Y118.508
X34.629 Y118.508
X34.629 Y118.533
X34.654 Y118.533
X34.654 Y118.558
X34.68 Y118.558
X34.68 Y118.584
X34.705 Y118.584
X34.705 Y118.609
X34.731 Y118.609
X34.731 Y118.635
X34.756 Y118.635
X34.756 Y118.66
X34.781 Y118.66
X34.781 Y118.685
X34.807 Y118.685
X34.807 Y118.711
X34.832 Y118.711
X34.832 Y118.736
X34.858 Y118.736
X34.858 Y118.762
X34.883 Y118.762
X34.883 Y118.787
X34.908 Y118.787
X34.908 Y118.812
X34.934 Y118.812
X34.934 Y118.838
X34.959 Y118.838
X34.959 Y118.863
X34.985 Y118.863
X34.985 Y118.889
X35.01 Y118.889
X35.01 Y118.914
X35.035 Y118.914
X35.035 Y118.939
X35.061 Y118.939
X35.061 Y118.965
X35.086 Y118.965
X35.086 Y118.99
X35.112 Y118.99
X35.112 Y119.016
X35.137 Y119.016
X35.137 Y119.041
X35.162 Y119.041
X35.162 Y119.066
X35.188 Y119.066
X35.188 Y119.092
X35.213 Y119.092
X35.213 Y119.117
X35.239 Y119.117
X35.239 Y119.143
X35.264 Y119.143
X35.264 Y119.168
X35.289 Y119.168
X35.289 Y119.193
X35.315 Y119.193
X35.315 Y119.219
X35.34 Y119.219
X35.34 Y119.244
X35.366 Y119.244
X35.366 Y119.27
X35.391 Y119.27
X35.391 Y119.295
X35.416 Y119.295
X35.416 Y119.32
X35.442 Y119.32
X35.442 Y119.346
X44.713 Y119.346
X44.713 Y119.32
X44.738 Y119.32
X44.738 Y119.295
X44.764 Y119.295
X44.764 Y119.27
X44.789 Y119.27
X44.789 Y119.244
X44.814 Y119.244
X44.814 Y119.219
X44.84 Y119.219
X44.84 Y119.193
X44.865 Y119.193
X44.865 Y119.168
X44.891 Y119.168
X44.891 Y119.143
X44.916 Y119.143
X44.916 Y119.117
X44.941 Y119.117
X44.941 Y119.092
X44.967 Y119.092
X44.967 Y119.066
X44.992 Y119.066
X44.992 Y119.041
X45.018 Y119.041
X45.018 Y119.016
X45.043 Y119.016
X45.043 Y118.99
X45.068 Y118.99
X45.068 Y118.965
X45.094 Y118.965
X45.094 Y118.939
X45.119 Y118.939
X45.119 Y118.914
X45.145 Y118.914
X45.145 Y118.889
X45.17 Y118.889
X45.17 Y118.863
X45.195 Y118.863
X45.195 Y118.838
X45.221 Y118.838
X45.221 Y118.812
X45.246 Y118.812
X45.246 Y118.787
X45.272 Y118.787
X45.272 Y118.762
X45.297 Y118.762
X45.297 Y118.736
X45.322 Y118.736
X45.322 Y118.711
X45.348 Y118.711
X45.348 Y118.685
X45.373 Y118.685
X45.373 Y118.66
X45.399 Y118.66
X45.399 Y118.635
X45.424 Y118.635
X45.424 Y118.609
X45.449 Y118.609
X45.449 Y118.584
X45.475 Y118.584
X45.475 Y118.558
X45.5 Y118.558
X45.5 Y118.533
X45.526 Y118.533
X45.526 Y118.508
X45.551 Y118.508
X45.551 Y118.482
X45.576 Y118.482
X45.576 Y118.457
X45.602 Y118.457
X45.602 Y118.431
X45.627 Y118.431
X45.627 Y118.406
X45.653 Y118.406
X45.653 Y118.381
X45.678 Y118.381
X45.678 Y118.355
X45.703 Y118.355
X45.703 Y118.33
X45.729 Y118.33
X45.729 Y118.304
X45.754 Y118.304
X45.754 Y118.279
X45.78 Y118.279
X45.78 Y118.254
X45.805 Y118.254
X45.805 Y118.228
X45.83 Y118.228
X45.83 Y118.203
X45.856 Y118.203
X45.856 Y118.177
X45.881 Y118.177
X45.881 Y118.152
X45.907 Y118.152
X45.907 Y118.127
X45.932 Y118.127
X45.932 Y118.101
X45.957 Y118.101
X45.957 Y117.974
X45.932 Y117.974
X45.932 Y117.847
X45.907 Y117.847
X45.907 Y117.111
X45.932 Y117.111
X45.932 Y116.984
X45.957 Y116.984
X45.957 Y116.831
X45.983 Y116.831
X45.983 Y116.679
X46.008 Y116.679
X46.008 Y116.628
X46.034 Y116.628
X46.034 Y116.577
X46.059 Y116.577
X46.059 Y116.552
X46.084 Y116.552
X46.084 Y116.501
X46.11 Y116.501
X46.11 Y116.45
X46.135 Y116.45
X46.135 Y116.425
X46.161 Y116.425
X46.161 Y116.374
X46.186 Y116.374
X46.186 Y116.323
X46.211 Y116.323
X46.211 Y116.272
X46.237 Y116.272
X46.237 Y116.247
X46.262 Y116.247
X46.262 Y116.196
X46.313 Y116.196
X46.313 Y116.171
X46.338 Y116.171
X46.338 Y116.145
X46.364 Y116.145
X46.364 Y116.12
X46.389 Y116.12
X46.389 Y116.095
X46.415 Y116.095
X46.415 Y116.069
X46.465 Y116.069
X46.465 Y116.044
X46.491 Y116.044
X46.491 Y116.018
X46.516 Y116.018
X46.516 Y115.993
X46.542 Y115.993
X46.542 Y115.968
X46.567 Y115.968
X46.567 Y115.942
X46.618 Y115.942
X46.618 Y115.917
X46.643 Y115.917
X46.643 Y115.891
X46.694 Y115.891
X46.694 Y115.866
X46.745 Y115.866
X46.745 Y115.841
X46.821 Y115.841
X46.821 Y115.815
X46.897 Y115.815
X46.897 Y115.79
X46.973 Y115.79
X46.973 Y115.764
X47.024 Y115.764
X47.024 Y115.739
X47.1 Y115.739
X47.1 Y115.714
X47.253 Y115.714
X47.253 Y115.688
X51.876 Y115.688
X51.876 Y115.663
X51.901 Y115.663
X51.901 Y115.637
X51.926 Y115.637
X51.926 Y115.612
X51.952 Y115.612
X51.952 Y115.587
X51.977 Y115.587
X51.977 Y115.561
X52.003 Y115.561
X52.003 Y115.536
X52.028 Y115.536
X52.028 Y115.51
X52.053 Y115.51
X52.053 Y115.485
X52.079 Y115.485
X52.079 Y115.46
X52.104 Y115.46
X52.104 Y115.434
X52.13 Y115.434
X52.13 Y115.409
X52.155 Y115.409
X52.155 Y115.383
X52.18 Y115.383
X52.18 Y115.358
X52.206 Y115.358
X52.206 Y115.333
X52.231 Y115.333
X52.231 Y115.307
X52.257 Y115.307
X52.257 Y115.282
X52.282 Y115.282
X52.282 Y115.256
X52.307 Y115.256
X52.307 Y115.231
X52.333 Y115.231
X52.333 Y115.206
X52.358 Y115.206
X52.358 Y115.18
X52.384 Y115.18
X52.384 Y115.155
X52.409 Y115.155
X52.409 Y115.129
X52.434 Y115.129
X52.434 Y115.104
X52.46 Y115.104
X52.46 Y115.079
X52.485 Y115.079
X52.485 Y115.053
X52.511 Y115.053
X52.511 Y115.028
X52.536 Y115.028
X52.536 Y115.002
X52.561 Y115.002
X52.561 Y114.977
X52.587 Y114.977
X52.587 Y114.952
X52.612 Y114.952
X52.612 Y114.926
X52.638 Y114.926
X52.638 Y114.901
X52.663 Y114.901
X52.663 Y114.875
X52.688 Y114.875
X52.688 Y114.85
X52.714 Y114.85
X52.714 Y114.825
X52.739 Y114.825
X52.739 Y114.799
X52.765 Y114.799
X52.765 Y114.774
X52.79 Y114.774
X52.79 Y114.748
X52.815 Y114.748
X52.815 Y114.723
X52.841 Y114.723
X52.841 Y114.698
X52.866 Y114.698
X52.866 Y114.672
X52.892 Y114.672
X52.892 Y114.647
X52.917 Y114.647
X52.917 Y114.621
X52.942 Y114.621
X52.942 Y114.596
X52.968 Y114.596
X52.968 Y114.571
X52.993 Y114.571
X52.993 Y114.545
X53.019 Y114.545
X53.019 Y114.52
X53.044 Y114.52
X53.044 Y114.494
X53.069 Y114.494
X53.069 Y114.469
X53.095 Y114.469
X53.095 Y114.444
X53.12 Y114.444
X53.12 Y114.418
X53.146 Y114.418
X53.146 Y114.393
X53.171 Y114.393
X53.171 Y114.367
X53.196 Y114.367
X53.196 Y114.342
X53.222 Y114.342
X53.222 Y114.317
X53.247 Y114.317
X53.247 Y114.291
X53.273 Y114.291
X53.273 Y114.266
X53.298 Y114.266
X53.298 Y114.24
X53.323 Y114.24
X53.323 Y114.215
X53.349 Y114.215
X53.349 Y114.19
X53.374 Y114.19
X53.374 Y114.164
X53.4 Y114.164
X53.4 Y114.139
X53.425 Y114.139
X53.425 Y114.113
X53.45 Y114.113
X53.45 Y114.088
X53.476 Y114.088
X53.476 Y114.063
X53.501 Y114.063
X53.501 Y114.037
X53.527 Y114.037
X53.527 Y114.012
X53.552 Y114.012
X53.552 Y113.986
X53.577 Y113.986
X53.577 Y113.961
X53.603 Y113.961
X53.603 Y113.936
X53.628 Y113.936
X53.628 Y113.91
X53.654 Y113.91
X53.654 Y113.885
X53.679 Y113.885
X53.679 Y113.859
X53.704 Y113.859
X53.704 Y113.834
X53.73 Y113.834
X53.73 Y113.809
X53.755 Y113.809
X53.755 Y113.783
X53.781 Y113.783
X53.781 Y113.758
X53.806 Y113.758
X53.806 Y113.732
X53.831 Y113.732
X53.831 Y113.707
X53.857 Y113.707
X53.857 Y113.682
X53.882 Y113.682
X53.882 Y113.656
X53.908 Y113.656
X53.908 Y113.631
X53.933 Y113.631
X53.933 Y113.605
X53.958 Y113.605
X53.958 Y113.58
X53.984 Y113.58
X53.984 Y113.555
X54.009 Y113.555
X54.009 Y113.529
X54.035 Y113.529
X54.035 Y113.504
X54.06 Y113.504
X54.06 Y113.478
X54.085 Y113.478
X54.085 Y113.453
X54.111 Y113.453
X54.111 Y113.428
X54.136 Y113.428
X54.136 Y113.402
X54.162 Y113.402
X54.162 Y113.377
X54.187 Y113.377
X54.187 Y113.351
X54.212 Y113.351
X54.212 Y113.326
X54.238 Y113.326
X54.238 Y113.301
X54.263 Y113.301
X54.263 Y113.275
X54.289 Y113.275
X54.289 Y113.25
X54.314 Y113.25
X54.314 Y113.224
X54.339 Y113.224
X54.339 Y113.199
X54.365 Y113.199
X54.365 Y113.174
X54.39 Y113.174
X54.39 Y113.148
X54.416 Y113.148
X54.416 Y113.123
X54.441 Y113.123
X54.441 Y113.097
X54.466 Y113.097
X54.466 Y113.072
X54.492 Y113.072
X54.492 Y113.047
X54.517 Y113.047
X54.517 Y113.021
X54.543 Y113.021
X54.543 Y112.996
X54.568 Y112.996
X54.568 Y112.97
X54.593 Y112.97
X54.593 Y112.945
X54.619 Y112.945
X54.619 Y112.92
X54.644 Y112.92
X54.644 Y112.894
X54.67 Y112.894
X54.67 Y112.869
X54.695 Y112.869
X54.695 Y112.843
X54.72 Y112.843
X54.72 Y112.818
X54.746 Y112.818
X54.746 Y112.793
X54.771 Y112.793
X54.771 Y112.767
X54.797 Y112.767
X54.797 Y76.471
X54.771 Y76.471
X54.771 Y76.445
X54.746 Y76.445
X54.746 Y76.42
X54.72 Y76.42
X54.72 Y76.394
X54.695 Y76.394
X54.695 Y76.369
X54.67 Y76.369
X54.67 Y76.344
X54.644 Y76.344
X54.644 Y76.318
X54.619 Y76.318
X54.619 Y76.293
X54.593 Y76.293
X54.593 Y76.267
X54.568 Y76.267
X54.568 Y76.242
X54.543 Y76.242
X54.543 Y76.217
X54.517 Y76.217
X54.517 Y76.191
X54.492 Y76.191
X54.492 Y76.166
X54.466 Y76.166
X54.466 Y76.14
X54.441 Y76.14
X54.441 Y76.115
X54.416 Y76.115
X54.416 Y76.09
X54.39 Y76.09
X54.39 Y76.064
X54.365 Y76.064
X54.365 Y76.039
X54.339 Y76.039
X54.339 Y76.013
X54.314 Y76.013
X54.314 Y75.988
X54.289 Y75.988
X54.289 Y75.963
X54.263 Y75.963
X54.263 Y75.937
X54.238 Y75.937
X54.238 Y75.912
X54.212 Y75.912
X54.212 Y75.886
X54.187 Y75.886
X54.187 Y75.861
X54.162 Y75.861
X54.162 Y75.836
X54.136 Y75.836
X54.136 Y75.81
X54.111 Y75.81
X54.111 Y75.785
X54.085 Y75.785
X54.085 Y75.759
X54.06 Y75.759
X54.06 Y75.734
X54.035 Y75.734
X54.035 Y75.709
X54.009 Y75.709
X54.009 Y75.683
X53.984 Y75.683
X53.984 Y75.658
X53.958 Y75.658
X53.958 Y75.632
X53.933 Y75.632
X53.933 Y75.607
X53.908 Y75.607
X53.908 Y75.582
X53.882 Y75.582
X53.882 Y75.556
X53.857 Y75.556
X53.857 Y75.531
X53.831 Y75.531
X53.831 Y75.505
X53.806 Y75.505
X53.806 Y75.48
X53.781 Y75.48
X53.781 Y75.455
X53.755 Y75.455
X53.755 Y75.429
X53.73 Y75.429
X53.73 Y75.404
X53.704 Y75.404
X53.704 Y75.378
X53.679 Y75.378
X53.679 Y75.353
X53.654 Y75.353
X53.654 Y75.328
X53.628 Y75.328
X53.628 Y75.302
X53.603 Y75.302
X53.603 Y75.277
X53.577 Y75.277
X53.577 Y75.251
X53.552 Y75.251
X53.552 Y75.226
X53.527 Y75.226
X53.527 Y75.201
X53.501 Y75.201
X53.501 Y75.175
X53.476 Y75.175
X53.476 Y75.15
X53.45 Y75.15
X53.45 Y75.124
X53.425 Y75.124
X53.425 Y75.099
X53.4 Y75.099
X53.4 Y75.074
X53.374 Y75.074
X53.374 Y75.048
X53.349 Y75.048
X53.349 Y75.023
X53.323 Y75.023
X53.323 Y74.997
X53.298 Y74.997
X53.298 Y74.972
X53.273 Y74.972
X53.273 Y74.947
X53.247 Y74.947
X53.247 Y74.921
X53.222 Y74.921
X53.222 Y74.896
X53.196 Y74.896
X53.196 Y74.87
X53.171 Y74.87
X53.171 Y74.845
X53.146 Y74.845
X53.146 Y74.82
X53.12 Y74.82
X53.12 Y74.794
X53.095 Y74.794
X53.095 Y74.769
X53.069 Y74.769
X53.069 Y74.743
X53.044 Y74.743
X53.044 Y74.718
X53.019 Y74.718
X53.019 Y74.693
X52.993 Y74.693
X52.993 Y74.667
X52.968 Y74.667
X52.968 Y74.642
X52.942 Y74.642
X52.942 Y74.616
X52.917 Y74.616
X52.917 Y74.591
X52.892 Y74.591
X52.892 Y74.566
X52.866 Y74.566
X52.866 Y74.54
X52.841 Y74.54
X52.841 Y74.515
X52.815 Y74.515
X52.815 Y74.489
X52.79 Y74.489
X52.79 Y74.464
X52.765 Y74.464
X52.765 Y74.439
X52.739 Y74.439
X52.739 Y74.413
X52.714 Y74.413
X52.714 Y74.388
X52.688 Y74.388
X52.688 Y74.362
X52.663 Y74.362
X52.663 Y74.337
X52.638 Y74.337
X52.638 Y74.312
X52.612 Y74.312
X52.612 Y74.286
X52.587 Y74.286
X52.587 Y74.261
X52.561 Y74.261
X52.561 Y74.235
X52.536 Y74.235
X52.536 Y74.21
X52.511 Y74.21
X52.511 Y74.185
X52.485 Y74.185
X52.485 Y74.159
X52.46 Y74.159
X52.46 Y74.134
X52.434 Y74.134
X52.434 Y74.108
X52.409 Y74.108
X52.409 Y74.083
X52.384 Y74.083
X52.384 Y74.058
X52.358 Y74.058
X52.358 Y74.032
X52.333 Y74.032
X52.333 Y74.007
X52.307 Y74.007
X52.307 Y73.981
X52.282 Y73.981
X52.282 Y73.956
X52.257 Y73.956
X52.257 Y73.931
X52.231 Y73.931
X52.231 Y73.905
X52.206 Y73.905
X52.206 Y73.88
X52.18 Y73.88
X52.18 Y73.854
X52.155 Y73.854
X52.155 Y73.829
X52.13 Y73.829
X52.13 Y73.804
X52.104 Y73.804
X52.104 Y73.778
X52.079 Y73.778
X52.079 Y73.753
X52.053 Y73.753
X52.053 Y73.727
X52.028 Y73.727
X52.028 Y73.702
X52.003 Y73.702
X52.003 Y73.677
X51.977 Y73.677
X51.977 Y73.651
X51.952 Y73.651
X51.952 Y73.626
X51.926 Y73.626
X51.926 Y73.6
X51.901 Y73.6
X51.901 Y73.575
X51.876 Y73.575
X51.876 Y73.55
X51.85 Y73.55
X51.85 Y73.524
X51.825 Y73.524
X51.825 Y73.499
X51.799 Y73.499
X51.799 Y73.473
X51.774 Y73.473
X51.774 Y73.448
X51.749 Y73.448
X51.749 Y73.423
X51.723 Y73.423
X51.723 Y73.397
X51.698 Y73.397
X51.698 Y73.372
X51.672 Y73.372
X51.672 Y73.346
X51.647 Y73.346
X51.647 Y73.321
X51.622 Y73.321
X51.622 Y73.296
X51.596 Y73.296
X51.596 Y73.27
X51.571 Y73.27
X51.571 Y73.245
X51.545 Y73.245
X51.545 Y73.219
X51.52 Y73.219
X51.52 Y73.194
X51.495 Y73.194
X51.495 Y73.169
X51.469 Y73.169
X51.469 Y73.143
X51.444 Y73.143
X51.444 Y73.118
X51.418 Y73.118
X51.418 Y73.067
X51.393 Y73.067
X51.393 Y73.042
X47.278 Y73.042
X47.278 Y73.016
X47.126 Y73.016
X47.126 Y72.991
X47.024 Y72.991
X47.024 Y72.965
X46.973 Y72.965
X46.973 Y72.94
X46.923 Y72.94
X46.923 Y72.915
X46.897 Y72.915
X46.897 Y72.889
X46.846 Y72.889
X46.846 Y72.864
X46.796 Y72.864
X46.796 Y72.838
X46.77 Y72.838
X46.77 Y72.813
X46.719 Y72.813
X46.719 Y72.788
X46.694 Y72.788
X46.694 Y72.762
X46.669 Y72.762
X46.669 Y72.737
X46.643 Y72.737
X46.643 Y72.711
X46.618 Y72.711
X46.618 Y72.686
X46.592 Y72.686
X46.592 Y72.635
X46.567 Y72.635
X46.567 Y72.61
X46.542 Y72.61
X46.542 Y72.559
X46.516 Y72.559
X46.516 Y72.508
X46.491 Y72.508
X46.491 Y72.432
X46.465 Y72.432
X46.465 Y72.356
X46.44 Y72.356
X46.44 Y72.28
X46.415 Y72.28
X46.415 Y72.102
X46.389 Y72.102
X46.389 Y71.391
X46.415 Y71.391
X46.415 Y71.238
X46.44 Y71.238
X46.44 Y71.162
X46.465 Y71.162
X46.465 Y71.06
X46.491 Y71.06
X46.491 Y71.01
X46.516 Y71.01
X46.516 Y70.959
X46.542 Y70.959
X46.542 Y70.933
X46.567 Y70.933
X46.567 Y70.883
X46.592 Y70.883
X46.592 Y70.832
X46.618 Y70.832
X46.618 Y70.806
X46.643 Y70.806
X46.643 Y70.781
X46.669 Y70.781
X46.669 Y70.756
X46.694 Y70.756
X46.694 Y70.73
X46.719 Y70.73
X46.719 Y70.705
X46.745 Y70.705
X46.745 Y70.679
X46.77 Y70.679
X46.77 Y70.654
X46.821 Y70.654
X46.821 Y70.629
X46.872 Y70.629
X46.872 Y70.603
X46.923 Y70.603
X46.923 Y70.578
X46.973 Y70.578
X46.973 Y70.552
X47.024 Y70.552
X47.024 Y70.527
X47.1 Y70.527
X47.1 Y70.502
X47.151 Y70.502
X47.151 Y70.476
X47.278 Y70.476
X47.278 Y70.451
X51.418 Y70.451
X51.418 Y70.425
X51.444 Y70.425
X51.444 Y70.4
X51.469 Y70.4
X51.469 Y60.443
X51.444 Y60.443
X51.444 Y60.418
X51.418 Y60.418
X51.418 Y60.367
X51.393 Y60.367
X51.393 Y60.342
X48.37 Y60.342
X48.37 Y60.367
X48.345 Y60.367
X48.345 Y60.392
X48.32 Y60.392
X48.32 Y60.418
X48.294 Y60.418
X48.294 Y60.443
X48.269 Y60.443
X48.269 Y60.469
X48.243 Y60.469
X48.243 Y60.494
X48.218 Y60.494
X48.218 Y60.519
X48.193 Y60.519
X48.193 Y60.545
X48.167 Y60.545
X48.167 Y60.57
X48.142 Y60.57
X48.142 Y60.596
X48.116 Y60.596
X48.116 Y60.621
X48.091 Y60.621
X48.091 Y60.646
X48.066 Y60.646
X48.066 Y60.672
X48.04 Y60.672
X48.04 Y60.697
X48.015 Y60.697
X48.015 Y60.723
X47.989 Y60.723
X47.989 Y60.748
X47.964 Y60.748
X47.964 Y60.773
X47.939 Y60.773
X47.939 Y60.799
X47.913 Y60.799
X47.913 Y60.824
X47.888 Y60.824
X47.888 Y60.85
X47.862 Y60.85
X47.862 Y60.875
X47.837 Y60.875
X47.837 Y60.9
X47.812 Y60.9
X47.812 Y60.926
X47.786 Y60.926
X47.786 Y60.951
X47.761 Y60.951
X47.761 Y60.977
X47.735 Y60.977
X47.735 Y61.002
X47.71 Y61.002
X47.71 Y61.027
X47.685 Y61.027
X47.685 Y61.053
X47.659 Y61.053
X47.659 Y61.078
X47.634 Y61.078
X47.634 Y61.104
X47.608 Y61.104
X47.608 Y61.129
X47.583 Y61.129
X47.583 Y61.154
X47.558 Y61.154
X47.558 Y61.18
X47.532 Y61.18
X47.532 Y61.205
X47.507 Y61.205
X47.507 Y61.231
X47.481 Y61.231
X47.481 Y61.256
X47.456 Y61.256
X47.456 Y61.281
X47.431 Y61.281
X47.431 Y61.307
X47.405 Y61.307
X47.405 Y61.332
X47.38 Y61.332
X47.38 Y61.358
X47.354 Y61.358
X47.354 Y61.383
X47.329 Y61.383
X47.329 Y61.408
X47.304 Y61.408
X47.304 Y61.434
X47.278 Y61.434
X47.278 Y61.459
X47.253 Y61.459
X47.253 Y61.485
X47.227 Y61.485
X47.227 Y61.51
X47.202 Y61.51
X47.202 Y61.535
X47.177 Y61.535
X47.177 Y61.561
X47.151 Y61.561
X47.151 Y61.586
X47.126 Y61.586
X47.126 Y61.612
X47.1 Y61.612
X47.1 Y61.637
X47.075 Y61.637
X47.075 Y61.662
X47.05 Y61.662
X47.05 Y61.688
X47.024 Y61.688
X47.024 Y61.713
X46.999 Y61.713
X46.999 Y61.739
X46.973 Y61.739
X46.973 Y61.764
X46.948 Y61.764
X46.948 Y61.789
X46.923 Y61.789
X46.923 Y61.815
X46.897 Y61.815
X46.897 Y61.84
X46.872 Y61.84
X46.872 Y61.866
X46.846 Y61.866
X46.846 Y61.891
X46.821 Y61.891
X46.821 Y61.916
X46.796 Y61.916
X46.796 Y61.942
X46.77 Y61.942
X46.77 Y61.967
X46.745 Y61.967
X46.745 Y61.993
X46.719 Y61.993
X46.719 Y62.018
X46.694 Y62.018
X46.694 Y62.043
X46.669 Y62.043
X46.669 Y62.069
X46.643 Y62.069
X46.643 Y62.094
X46.618 Y62.094
X46.618 Y62.12
X46.592 Y62.12
X46.592 Y62.145
X46.567 Y62.145
X46.567 Y62.17
X46.542 Y62.17
X46.542 Y62.196
X46.516 Y62.196
X46.516 Y62.221
X46.491 Y62.221
X46.491 Y62.247
X46.465 Y62.247
X46.465 Y62.272
X46.44 Y62.272
X46.44 Y62.297
X46.415 Y62.297
X46.415 Y62.323
X46.389 Y62.323
X46.389 Y62.348
X46.364 Y62.348
X46.364 Y62.374
X46.338 Y62.374
X46.338 Y62.399
X46.313 Y62.399
X46.313 Y62.424
X46.288 Y62.424
X46.288 Y62.45
X46.262 Y62.45
X46.262 Y62.475
X46.237 Y62.475
X46.237 Y62.501
X46.211 Y62.501
X46.211 Y62.526
X46.186 Y62.526
X46.186 Y62.551
X46.161 Y62.551
X46.161 Y62.577
X46.135 Y62.577
X46.135 Y62.602
X46.11 Y62.602
X46.11 Y62.628
X46.084 Y62.628
X46.084 Y62.653
X46.059 Y62.653
X46.059 Y62.678
X46.034 Y62.678
X46.034 Y62.704
X46.008 Y62.704
X46.008 Y62.729
X45.983 Y62.729
X45.983 Y62.755
X45.957 Y62.755
X45.957 Y62.78
X45.932 Y62.78
X45.932 Y62.805
X45.907 Y62.805
X45.907 Y62.831
X45.881 Y62.831
X45.881 Y62.856
X45.856 Y62.856
X45.856 Y62.882
X45.83 Y62.882
X45.83 Y62.907
X45.805 Y62.907
X45.805 Y62.932
X45.78 Y62.932
X45.78 Y62.958
X45.754 Y62.958
X45.754 Y62.983
X45.729 Y62.983
X45.729 Y63.009
X45.703 Y63.009
X45.703 Y63.034
X45.678 Y63.034
X45.678 Y63.059
X45.653 Y63.059
X45.653 Y63.085
X45.627 Y63.085
X45.627 Y63.11
X45.602 Y63.11
X45.602 Y63.136
X45.576 Y63.136
X45.576 Y63.161
X45.551 Y63.161
X45.551 Y63.186
X45.526 Y63.186
X45.526 Y63.212
X45.5 Y63.212
X45.5 Y63.237
X45.475 Y63.237
X45.475 Y63.263
X45.449 Y63.263
X45.449 Y63.288
X45.424 Y63.288
X45.424 Y63.313
X45.399 Y63.313
X45.399 Y63.339
X45.373 Y63.339
X45.373 Y63.364
X45.348 Y63.364
X45.348 Y63.39
X45.322 Y63.39
X45.322 Y63.415
X45.297 Y63.415
X45.297 Y63.44
X45.272 Y63.44
X45.272 Y63.466
X45.246 Y63.466
X45.246 Y63.491
X45.221 Y63.491
X45.221 Y63.517
X45.195 Y63.517
X45.195 Y63.542
X45.17 Y63.542
X45.17 Y63.567
X45.145 Y63.567
X45.145 Y63.593
X45.119 Y63.593
X45.119 Y63.618
X45.094 Y63.618
X45.094 Y63.644
X45.068 Y63.644
X45.068 Y63.669
X45.043 Y63.669
X45.043 Y63.694
X45.018 Y63.694
X45.018 Y63.72
X44.992 Y63.72
X44.992 Y63.745
X44.967 Y63.745
X44.967 Y63.771
X44.941 Y63.771
X44.941 Y63.796
X44.916 Y63.796
X44.916 Y63.821
X44.891 Y63.821
X44.891 Y63.847
X44.865 Y63.847
X44.865 Y63.872
X44.84 Y63.872
X44.84 Y63.898
X44.814 Y63.898
X44.814 Y63.923
X44.789 Y63.923
X44.789 Y63.948
X44.764 Y63.948
X44.764 Y63.974
X44.738 Y63.974
X44.738 Y63.999
X44.713 Y63.999
X44.713 Y64.025
X44.687 Y64.025
X44.687 Y64.05
X44.662 Y64.05
X44.662 Y64.075
X44.637 Y64.075
X44.637 Y64.101
X44.611 Y64.101
X44.611 Y64.126
X44.586 Y64.126
X44.586 Y64.152
X44.56 Y64.152
X44.56 Y64.177
X44.535 Y64.177
X44.535 Y64.202
X44.51 Y64.202
X44.51 Y64.228
X44.484 Y64.228
X44.484 Y64.253
X44.459 Y64.253
X44.459 Y64.279
X44.433 Y64.279
X44.433 Y64.304
X44.408 Y64.304
X44.408 Y64.329
X44.383 Y64.329
X44.383 Y64.355
X44.357 Y64.355
X44.357 Y64.38
X44.332 Y64.38
X44.332 Y64.406
X44.306 Y64.406
X44.306 Y64.431
X44.281 Y64.431
X44.281 Y64.456
X44.256 Y64.456
X44.256 Y64.482
X44.23 Y64.482
X44.23 Y64.507
X44.205 Y64.507
X44.205 Y64.533
X44.179 Y64.533
X44.179 Y64.558
X44.154 Y64.558
X44.154 Y64.583
X44.129 Y64.583
X44.129 Y64.609
X44.103 Y64.609
X44.103 Y64.634
X44.078 Y64.634
X44.078 Y64.66
X44.052 Y64.66
X44.052 Y64.685
X44.027 Y64.685
X44.027 Y64.71
X44.002 Y64.71
X44.002 Y64.736
X43.976 Y64.736
X43.976 Y64.761
X43.951 Y64.761
X43.951 Y64.787
X43.925 Y64.787
X43.925 Y64.812
X43.9 Y64.812
X43.9 Y64.837
X43.875 Y64.837
X43.875 Y64.863
X43.849 Y64.863
X43.849 Y64.888
X43.824 Y64.888
X43.824 Y64.914
X43.798 Y64.914
X43.798 Y64.939
X43.773 Y64.939
X43.773 Y64.964
X43.748 Y64.964
X43.748 Y64.99
X43.722 Y64.99
X43.722 Y65.015
X43.697 Y65.015
X43.697 Y65.041
X43.671 Y65.041
X43.671 Y65.066
X43.646 Y65.066
X43.646 Y65.091
X43.621 Y65.091
X43.621 Y65.117
X43.595 Y65.117
X43.595 Y65.142
X43.544 Y65.142
X43.544 Y65.168
X43.519 Y65.168
X43.519 Y65.193
X43.468 Y65.193
X43.468 Y65.218
X43.417 Y65.218
X43.417 Y65.244
X43.367 Y65.244
X43.367 Y65.269
X43.316 Y65.269
X43.316 Y65.295
X43.29 Y65.295
X43.29 Y65.32
X43.24 Y65.32
X43.24 Y65.345
X43.189 Y65.345
X43.189 Y65.371
X43.138 Y65.371
X43.138 Y65.396
X42.071 Y65.396
X42.071 Y65.371
X42.02 Y65.371
X42.02 Y65.345
X41.97 Y65.345
X41.97 Y65.32
X41.893 Y65.32
X41.893 Y65.295
X41.843 Y65.295
X41.843 Y65.269
X41.792 Y65.269
X41.792 Y65.244
X41.741 Y65.244
X41.741 Y65.218
X41.69 Y65.218
X41.69 Y65.193
X41.665 Y65.193
X41.665 Y65.168
X41.639 Y65.168
X41.639 Y65.117
X41.614 Y65.117
X41.614 Y65.091
X41.589 Y65.091
X41.589 Y65.066
X41.563 Y65.066
X41.563 Y65.041
X41.538 Y65.041
X41.538 Y64.99
X41.512 Y64.99
X41.512 Y64.964
X41.487 Y64.964
X41.487 Y64.939
X41.462 Y64.939
X41.462 Y64.914
X41.436 Y64.914
X41.436 Y64.863
X41.411 Y64.863
X41.411 Y64.812
X41.385 Y64.812
X41.385 Y64.685
X41.36 Y64.685
X41.36 Y64.583
X41.335 Y64.583
X41.335 Y64.482
X41.309 Y64.482
X41.309 Y63.771
X41.335 Y63.771
X41.335 Y63.669
X41.36 Y63.669
X41.36 Y63.567
X41.385 Y63.567
X41.385 Y63.44
X41.411 Y63.44
X41.411 Y63.39
X41.436 Y63.39
X41.436 Y63.339
X41.462 Y63.339
X41.462 Y63.313
X41.487 Y63.313
X41.487 Y63.263
X41.512 Y63.263
X41.512 Y63.237
X41.538 Y63.237
X41.538 Y63.186
X41.563 Y63.186
X41.563 Y63.161
X41.589 Y63.161
X41.589 Y63.136
X41.614 Y63.136
X41.614 Y63.11
X41.639 Y63.11
X41.639 Y63.085
X41.665 Y63.085
X41.665 Y63.059
X41.69 Y63.059
X41.69 Y63.034
X41.716 Y63.034
X41.716 Y63.009
X41.741 Y63.009
X41.741 Y62.983
X41.766 Y62.983
X41.766 Y62.958
X41.792 Y62.958
X41.792 Y62.932
X41.817 Y62.932
X41.817 Y62.907
X41.843 Y62.907
X41.843 Y62.882
X41.868 Y62.882
X41.868 Y62.856
X41.893 Y62.856
X41.893 Y62.831
X41.919 Y62.831
X41.919 Y62.805
X41.944 Y62.805
X41.944 Y62.78
X41.97 Y62.78
X41.97 Y62.755
X41.995 Y62.755
X41.995 Y62.729
X42.02 Y62.729
X42.02 Y62.704
X42.046 Y62.704
X42.046 Y62.678
X42.071 Y62.678
X42.071 Y62.653
X42.097 Y62.653
X42.097 Y62.628
X42.122 Y62.628
X42.122 Y62.602
X42.147 Y62.602
X42.147 Y62.577
X42.173 Y62.577
X42.173 Y62.551
X42.198 Y62.551
X42.198 Y62.526
X42.224 Y62.526
X42.224 Y62.501
X42.249 Y62.501
X42.249 Y62.475
X42.274 Y62.475
X42.274 Y62.45
X42.3 Y62.45
X42.3 Y62.424
X42.325 Y62.424
X42.325 Y62.399
X42.351 Y62.399
X42.351 Y62.374
X42.376 Y62.374
X42.376 Y62.348
X42.401 Y62.348
X42.401 Y62.323
X42.427 Y62.323
X42.427 Y62.297
X42.452 Y62.297
X42.452 Y62.272
X42.478 Y62.272
X42.478 Y62.247
X42.503 Y62.247
X42.503 Y62.221
X42.528 Y62.221
X42.528 Y62.196
X42.554 Y62.196
X42.554 Y62.17
X42.579 Y62.17
X42.579 Y62.145
X42.605 Y62.145
X42.605 Y62.12
X42.63 Y62.12
X42.63 Y62.094
X42.655 Y62.094
X42.655 Y62.069
X42.681 Y62.069
X42.681 Y62.043
X42.706 Y62.043
X42.706 Y62.018
X42.732 Y62.018
X42.732 Y61.993
X42.757 Y61.993
X42.757 Y61.967
X42.782 Y61.967
X42.782 Y61.942
X42.808 Y61.942
X42.808 Y61.916
X42.833 Y61.916
X42.833 Y61.891
X42.859 Y61.891
X42.859 Y61.866
X42.884 Y61.866
X42.884 Y61.84
X42.909 Y61.84
X42.909 Y61.815
X42.935 Y61.815
X42.935 Y61.789
X42.96 Y61.789
X42.96 Y61.764
X42.986 Y61.764
X42.986 Y61.739
X43.011 Y61.739
X43.011 Y61.713
X43.036 Y61.713
X43.036 Y61.688
X43.062 Y61.688
X43.062 Y61.662
X43.087 Y61.662
X43.087 Y61.637
X43.113 Y61.637
X43.113 Y61.612
X43.138 Y61.612
X43.138 Y61.586
X43.163 Y61.586
X43.163 Y61.561
X43.189 Y61.561
X43.189 Y61.535
X43.214 Y61.535
X43.214 Y61.51
X43.24 Y61.51
X43.24 Y61.485
X43.265 Y61.485
X43.265 Y61.459
X43.29 Y61.459
X43.29 Y61.434
X43.316 Y61.434
X43.316 Y61.408
X43.341 Y61.408
X43.341 Y61.383
X43.367 Y61.383
X43.367 Y61.358
X43.392 Y61.358
X43.392 Y61.332
X43.417 Y61.332
X43.417 Y61.307
X43.443 Y61.307
X43.443 Y61.281
X43.468 Y61.281
X43.468 Y61.256
X43.494 Y61.256
X43.494 Y61.231
X43.519 Y61.231
X43.519 Y61.205
X43.544 Y61.205
X43.544 Y61.18
X43.57 Y61.18
X43.57 Y61.154
X43.595 Y61.154
X43.595 Y61.129
X43.621 Y61.129
X43.621 Y61.104
X43.646 Y61.104
X43.646 Y61.078
X43.671 Y61.078
X43.671 Y61.053
X43.697 Y61.053
X43.697 Y61.027
X43.722 Y61.027
X43.722 Y61.002
X43.748 Y61.002
X43.748 Y60.977
X43.773 Y60.977
X43.773 Y60.951
X43.798 Y60.951
X43.798 Y60.926
X43.824 Y60.926
X43.824 Y60.9
X43.849 Y60.9
X43.849 Y60.875
X43.875 Y60.875
X43.875 Y60.85
X43.9 Y60.85
X43.9 Y60.824
X43.925 Y60.824
X43.925 Y60.799
X43.951 Y60.799
X43.951 Y60.773
X43.976 Y60.773
X43.976 Y60.748
X44.002 Y60.748
X44.002 Y60.723
X44.027 Y60.723
X44.027 Y60.697
X44.052 Y60.697
X44.052 Y60.672
X44.078 Y60.672
X44.078 Y60.646
X44.103 Y60.646
X44.103 Y60.621
X44.129 Y60.621
X44.129 Y60.596
X44.154 Y60.596
X44.154 Y60.57
X44.179 Y60.57
X44.179 Y60.545
X44.205 Y60.545
X44.205 Y60.519
X44.23 Y60.519
X44.23 Y60.494
X44.256 Y60.494
X44.256 Y60.469
X44.281 Y60.469
X44.281 Y60.443
X44.306 Y60.443
X44.306 Y60.418
X44.332 Y60.418
X44.332 Y60.392
X44.357 Y60.392
X44.357 Y60.367
X44.383 Y60.367
X44.383 Y60.342
X44.408 Y60.342
X44.408 Y60.316
X44.433 Y60.316
X44.433 Y60.291
X44.459 Y60.291
X44.459 Y60.265
X44.484 Y60.265
X44.484 Y60.24
X44.51 Y60.24
X44.51 Y60.215
X44.535 Y60.215
X44.535 Y60.189
X44.56 Y60.189
X44.56 Y60.164
X44.586 Y60.164
X44.586 Y60.138
X44.611 Y60.138
X44.611 Y60.113
X44.637 Y60.113
X44.637 Y60.088
X44.662 Y60.088
X44.662 Y60.062
X44.687 Y60.062
X44.687 Y60.037
X44.713 Y60.037
X44.713 Y60.011
X44.738 Y60.011
X44.738 Y59.986
X44.764 Y59.986
X44.764 Y59.961
X44.789 Y59.961
X44.789 Y59.935
X44.814 Y59.935
X44.814 Y59.91
X44.84 Y59.91
X44.84 Y59.884
X44.865 Y59.884
X44.865 Y59.859
X44.891 Y59.859
X44.891 Y59.834
X44.916 Y59.834
X44.916 Y59.808
X44.941 Y59.808
X44.941 Y59.783
X44.967 Y59.783
X44.967 Y59.757
X44.992 Y59.757
X44.992 Y59.732
X45.018 Y59.732
X45.018 Y59.707
X45.043 Y59.707
X45.043 Y59.681
X45.068 Y59.681
X45.068 Y59.656
X45.094 Y59.656
X45.094 Y59.63
X45.119 Y59.63
X45.119 Y59.605
X45.145 Y59.605
X45.145 Y59.58
X45.17 Y59.58
X45.17 Y59.554
X45.195 Y59.554
X45.195 Y59.529
X45.221 Y59.529
X45.221 Y59.503
X45.246 Y59.503
X45.246 Y59.478
X45.272 Y59.478
X45.272 Y59.453
X45.297 Y59.453
X45.297 Y59.427
X45.322 Y59.427
X45.322 Y59.402
X45.348 Y59.402
X45.348 Y59.376
X45.373 Y59.376
X45.373 Y59.351
X45.399 Y59.351
X45.399 Y59.326
X45.424 Y59.326
X45.424 Y59.3
X45.449 Y59.3
X45.449 Y59.275
X45.475 Y59.275
X45.475 Y59.249
X45.5 Y59.249
X45.5 Y59.224
X45.526 Y59.224
X45.526 Y59.199
X45.551 Y59.199
X45.551 Y59.173
X45.576 Y59.173
X45.576 Y59.148
X45.602 Y59.148
X45.602 Y59.122
X45.627 Y59.122
X45.627 Y59.097
X45.653 Y59.097
X45.653 Y59.072
X45.678 Y59.072
X45.678 Y59.046
X45.703 Y59.046
X45.703 Y59.021
X45.729 Y59.021
X45.729 Y58.995
X45.754 Y58.995
X45.754 Y58.97
X45.78 Y58.97
X45.78 Y58.945
X45.805 Y58.945
X45.805 Y58.919
X45.83 Y58.919
X45.83 Y58.894
X45.856 Y58.894
X45.856 Y58.868
X45.881 Y58.868
X45.881 Y58.843
X45.907 Y58.843
X45.907 Y58.818
X45.932 Y58.818
X45.932 Y58.792
X45.957 Y58.792
X45.957 Y58.767
X45.983 Y58.767
X45.983 Y58.741
X46.008 Y58.741
X46.008 Y58.716
X46.034 Y58.716
X46.034 Y58.691
X46.059 Y58.691
X46.059 Y58.665
X46.084 Y58.665
X46.084 Y58.64
X46.11 Y58.64
X46.11 Y58.614
X46.135 Y58.614
X46.135 Y58.589
X46.161 Y58.589
X46.161 Y58.564
X46.186 Y58.564
X46.186 Y58.538
X46.211 Y58.538
X46.211 Y58.513
X46.237 Y58.513
X46.237 Y58.487
X46.262 Y58.487
X46.262 Y58.462
X46.288 Y58.462
X46.288 Y58.437
X46.313 Y58.437
X46.313 Y58.411
X46.338 Y58.411
X46.338 Y58.386
X46.364 Y58.386
X46.364 Y58.36
X46.389 Y58.36
X46.389 Y58.335
X46.415 Y58.335
X46.415 Y58.31
X46.44 Y58.31
X46.44 Y58.284
X46.465 Y58.284
X46.465 Y58.259
X46.491 Y58.259
X46.491 Y58.233
X46.516 Y58.233
X46.516 Y58.208
X46.542 Y58.208
X46.542 Y58.183
X46.567 Y58.183
X46.567 Y58.157
X46.592 Y58.157
X46.592 Y58.132
X46.618 Y58.132
X46.618 Y58.106
X46.643 Y58.106
X46.643 Y58.081
X46.669 Y58.081
X46.669 Y58.056
X46.694 Y58.056
X46.694 Y58.03
X46.719 Y58.03
X46.719 Y58.005
X46.745 Y58.005
X46.745 Y57.979
X46.77 Y57.979
X46.77 Y57.954
X46.821 Y57.954
X46.821 Y57.929
X46.872 Y57.929
X46.872 Y57.903
X46.923 Y57.903
X46.923 Y57.878
X46.973 Y57.878
X46.973 Y57.852
X47.024 Y57.852
X47.024 Y57.827
X47.1 Y57.827
X47.1 Y57.802
X47.151 Y57.802
X47.151 Y57.776
X50.529 Y57.776
X50.529 Y57.751
X51.418 Y57.751
X51.418 Y57.725
X51.444 Y57.725
X51.444 Y57.7
X51.469 Y57.7
X51.469 Y57.675
X51.495 Y57.675
X51.495 Y57.649
X51.545 Y57.649
X51.545 Y57.624
X51.571 Y57.624
X51.571 Y57.598
X51.596 Y57.598
X51.596 Y57.573
X51.622 Y57.573
X51.622 Y57.548
X51.647 Y57.548
X51.647 Y57.522
X51.698 Y57.522
X51.698 Y57.497
X51.723 Y57.497
X51.723 Y57.471
X51.774 Y57.471
X51.774 Y57.446
X51.825 Y57.446
X51.825 Y57.421
X51.901 Y57.421
X51.901 Y57.395
X51.977 Y57.395
X51.977 Y57.37
X52.053 Y57.37
X52.053 Y57.344
X52.104 Y57.344
X52.104 Y57.319
X52.18 Y57.319
X52.18 Y57.294
X53.374 Y57.294
X53.374 Y57.319
X53.45 Y57.319
X53.45 Y57.344
X53.501 Y57.344
X53.501 Y57.37
X53.577 Y57.37
X53.577 Y57.395
X53.654 Y57.395
X53.654 Y57.421
X53.73 Y57.421
X53.73 Y57.446
X53.781 Y57.446
X53.781 Y57.471
X53.831 Y57.471
X53.831 Y57.497
X53.882 Y57.497
X53.882 Y57.522
X53.908 Y57.522
X53.908 Y57.548
X53.933 Y57.548
X53.933 Y57.573
X53.958 Y57.573
X53.958 Y57.598
X54.009 Y57.598
X54.009 Y57.624
X54.035 Y57.624
X54.035 Y57.649
X54.06 Y57.649
X54.06 Y57.675
X54.111 Y57.675
X54.111 Y57.7
X54.136 Y57.7
X54.136 Y57.725
X54.162 Y57.725
X54.162 Y57.751
X54.187 Y57.751
X54.187 Y57.776
X54.212 Y57.776
X54.212 Y57.802
X54.238 Y57.802
X54.238 Y57.827
X54.263 Y57.827
X54.263 Y57.852
X54.289 Y57.852
X54.289 Y57.878
X54.314 Y57.878
X54.314 Y57.903
X54.339 Y57.903
X54.339 Y57.929
X54.365 Y57.929
X54.365 Y57.954
X54.39 Y57.954
X54.39 Y57.979
X54.416 Y57.979
X54.416 Y58.005
X54.441 Y58.005
X54.441 Y58.03
X54.466 Y58.03
X54.466 Y58.056
X54.492 Y58.056
X54.492 Y58.081
X54.517 Y58.081
X54.517 Y58.106
X54.543 Y58.106
X54.543 Y58.132
X54.568 Y58.132
X54.568 Y58.157
X54.593 Y58.157
X54.593 Y58.183
X54.619 Y58.183
X54.619 Y58.208
X54.644 Y58.208
X54.644 Y58.233
X54.67 Y58.233
X54.67 Y58.259
X54.695 Y58.259
X54.695 Y58.284
X54.72 Y58.284
X54.72 Y58.31
X54.746 Y58.31
X54.746 Y58.335
X54.771 Y58.335
X54.771 Y58.36
X54.797 Y58.36
X54.797 Y25.671
X54.771 Y25.671
X54.771 Y25.645
X54.746 Y25.645
X54.746 Y25.62
X54.72 Y25.62
X54.72 Y25.594
X54.695 Y25.594
X54.695 Y25.569
X54.67 Y25.569
X54.67 Y25.544
X54.644 Y25.544
X54.644 Y25.518
X54.619 Y25.518
X54.619 Y25.493
X54.593 Y25.493
X54.593 Y25.467
X54.568 Y25.467
X54.568 Y25.442
X54.543 Y25.442
X54.543 Y25.417
X54.517 Y25.417
X54.517 Y25.391
X54.492 Y25.391
X54.492 Y25.366
X54.466 Y25.366
X54.466 Y25.34
X54.441 Y25.34
X54.441 Y25.315
X54.416 Y25.315
X54.416 Y25.29
X54.39 Y25.29
X54.39 Y25.264
X54.365 Y25.264
X54.365 Y25.239
X54.339 Y25.239
X54.339 Y25.213
X54.314 Y25.213
X54.314 Y25.188
X54.289 Y25.188
X54.289 Y25.163
X54.263 Y25.163
X54.263 Y25.137
X54.238 Y25.137
X54.238 Y25.112
X54.212 Y25.112
X54.212 Y25.086
X54.187 Y25.086
X54.187 Y25.061
X54.162 Y25.061
X54.162 Y25.036
X54.136 Y25.036
X54.136 Y25.01
X54.111 Y25.01
X54.111 Y24.985
X54.085 Y24.985
X54.085 Y24.959
X54.06 Y24.959
X54.06 Y24.934
X54.035 Y24.934
X54.035 Y24.909
X54.009 Y24.909
X54.009 Y24.883
X53.984 Y24.883
X53.984 Y24.858
X53.958 Y24.858
X53.958 Y24.832
X53.933 Y24.832
X53.933 Y24.807
X53.908 Y24.807
X53.908 Y24.782
X53.882 Y24.782
X53.882 Y24.756
X53.857 Y24.756
X53.857 Y24.731
X53.831 Y24.731
X53.831 Y24.705
X53.806 Y24.705
X53.806 Y24.68
X53.781 Y24.68
X53.781 Y24.655
X53.755 Y24.655
X53.755 Y24.629
X53.73 Y24.629
X53.73 Y24.604
X53.704 Y24.604
X53.704 Y24.578
X53.679 Y24.578
X53.679 Y24.553
X53.654 Y24.553
X53.654 Y24.528
X53.628 Y24.528
X53.628 Y24.502
X53.603 Y24.502
X53.603 Y24.477
X53.577 Y24.477
X53.577 Y24.451
X53.552 Y24.451
X53.552 Y24.426
X53.527 Y24.426
X53.527 Y24.401
X53.501 Y24.401
X53.501 Y24.375
X53.476 Y24.375
X53.476 Y24.35
X53.45 Y24.35
X53.45 Y24.324
X53.425 Y24.324
X53.425 Y24.299
X53.4 Y24.299
X53.4 Y24.274
X53.374 Y24.274
X53.374 Y24.248
X53.349 Y24.248
X53.349 Y24.223
X53.323 Y24.223
X53.323 Y24.197
X53.298 Y24.197
X53.298 Y24.172
X53.273 Y24.172
X53.273 Y24.147
X53.247 Y24.147
X53.247 Y24.121
X53.222 Y24.121
X53.222 Y24.096
X53.196 Y24.096
X53.196 Y24.07
X53.171 Y24.07
X53.171 Y24.045
X53.146 Y24.045
X53.146 Y24.02
X53.12 Y24.02
X53.12 Y23.994
X53.095 Y23.994
X53.095 Y23.969
X53.069 Y23.969
X53.069 Y23.943
X53.044 Y23.943
X53.044 Y23.918
X53.019 Y23.918
X53.019 Y23.893
X52.993 Y23.893
X52.993 Y23.867
X52.968 Y23.867
X52.968 Y23.842
X52.942 Y23.842
X52.942 Y23.816
X52.917 Y23.816
X52.917 Y23.791
X52.892 Y23.791
X52.892 Y23.766
X52.866 Y23.766
X52.866 Y23.74
X52.841 Y23.74
X52.841 Y23.715
X52.815 Y23.715
X52.815 Y23.689
X52.79 Y23.689
X52.79 Y23.664
X52.765 Y23.664
X52.765 Y23.639
X52.739 Y23.639
X52.739 Y23.613
X52.714 Y23.613
X52.714 Y23.588
X52.688 Y23.588
X52.688 Y23.562
X52.663 Y23.562
X52.663 Y23.537
X52.638 Y23.537
X52.638 Y23.512
X52.612 Y23.512
X52.612 Y23.486
X52.587 Y23.486
X52.587 Y23.461
X52.561 Y23.461
X52.561 Y23.435
X52.536 Y23.435
X52.536 Y23.41
X52.511 Y23.41
X52.511 Y23.385
X52.485 Y23.385
X52.485 Y23.359
X52.46 Y23.359
X52.46 Y23.334
X52.434 Y23.334
X52.434 Y23.308
X52.409 Y23.308
X52.409 Y23.283
X52.384 Y23.283
X52.384 Y23.258
X52.358 Y23.258
X52.358 Y23.232
X52.333 Y23.232
X52.333 Y23.207
X52.307 Y23.207
X52.307 Y23.181
X52.282 Y23.181
X52.282 Y23.156
X52.257 Y23.156
X52.257 Y23.131
X52.231 Y23.131
X52.231 Y23.105
X52.206 Y23.105
X52.206 Y23.08
X52.18 Y23.08
X52.18 Y23.054
X52.155 Y23.054
X52.155 Y23.029
X52.13 Y23.029
X52.13 Y23.004
X52.104 Y23.004
X52.104 Y22.978
X52.079 Y22.978
X52.079 Y22.953
X52.053 Y22.953
X52.053 Y22.927
X52.028 Y22.927
X52.028 Y22.902
X52.003 Y22.902
X52.003 Y22.877
X51.977 Y22.877
X51.977 Y22.851
X51.952 Y22.851
X51.952 Y22.826
X51.926 Y22.826
X51.926 Y22.8
X51.901 Y22.8
X51.901 Y22.775
X51.876 Y22.775
X51.876 Y22.75
X51.85 Y22.75
X51.85 Y22.724
X51.825 Y22.724
X51.825 Y22.699
X51.799 Y22.699
X51.799 Y22.673
X51.774 Y22.673
X51.774 Y22.648
X51.749 Y22.648
X51.749 Y22.623
X51.723 Y22.623
X51.723 Y22.597
X51.698 Y22.597
X51.698 Y22.572
X51.672 Y22.572
X51.672 Y22.546
X51.647 Y22.546
X51.647 Y22.521
X51.622 Y22.521
X51.622 Y22.496
X51.596 Y22.496
X51.596 Y22.47
X51.571 Y22.47
X51.571 Y22.445
X51.545 Y22.445
X51.545 Y22.419
X51.52 Y22.419
X51.52 Y22.394
X51.495 Y22.394
X51.495 Y22.369
X51.469 Y22.369
X51.469 Y22.343
X51.444 Y22.343
X51.444 Y22.318
X51.418 Y22.318
X51.418 Y22.267
X51.393 Y22.267
X51.393 Y22.242
X47.278 Y22.242
X47.278 Y22.216
X47.126 Y22.216
X47.126 Y22.191
X47.024 Y22.191
X47.024 Y22.165
X46.973 Y22.165
X46.973 Y22.14
X46.923 Y22.14
X46.923 Y22.115
X46.897 Y22.115
X46.897 Y22.089
X46.846 Y22.089
X46.846 Y22.064
X46.796 Y22.064
X46.796 Y22.038
X46.77 Y22.038
X46.77 Y22.013
X46.719 Y22.013
X46.719 Y21.988
X46.694 Y21.988
X46.694 Y21.962
X46.669 Y21.962
X46.669 Y21.937
X46.643 Y21.937
X46.643 Y21.911
X46.618 Y21.911
X46.618 Y21.886
X46.592 Y21.886
X46.592 Y21.835
X46.567 Y21.835
X46.567 Y21.81
X46.542 Y21.81
X46.542 Y21.759
X46.516 Y21.759
X46.516 Y21.708
X46.491 Y21.708
X46.491 Y21.632
X46.465 Y21.632
X46.465 Y21.556
X46.44 Y21.556
X46.44 Y21.48
X46.415 Y21.48
X46.415 Y21.302
X46.389 Y21.302
X46.389 Y20.591
X46.415 Y20.591
X46.415 Y20.438
X46.44 Y20.438
X46.44 Y20.362
X46.465 Y20.362
X46.465 Y20.26
X46.491 Y20.26
X46.491 Y20.21
X46.516 Y20.21
X46.516 Y20.159
X46.542 Y20.159
X46.542 Y20.133
X46.567 Y20.133
X46.567 Y20.083
X46.592 Y20.083
X46.592 Y20.032
X46.618 Y20.032
X46.618 Y20.006
X46.643 Y20.006
X46.643 Y19.981
X46.669 Y19.981
X46.669 Y19.956
X46.694 Y19.956
X46.694 Y19.93
X46.719 Y19.93
X46.719 Y19.905
X46.745 Y19.905
X46.745 Y19.879
X46.77 Y19.879
X46.77 Y19.854
X46.821 Y19.854
X46.821 Y19.829
X46.872 Y19.829
X46.872 Y19.803
X46.923 Y19.803
X46.923 Y19.778
X46.973 Y19.778
X46.973 Y19.752
X47.024 Y19.752
X47.024 Y19.727
X47.1 Y19.727
X47.1 Y19.702
X47.151 Y19.702
X47.151 Y19.676
X47.278 Y19.676
X47.278 Y19.651
X51.418 Y19.651
X51.418 Y19.625
X51.444 Y19.625
X51.444 Y19.6
X51.469 Y19.6
X51.469 Y9.643
X51.444 Y9.643
X51.444 Y9.618
X51.418 Y9.618
X51.418 Y9.567
X51.393 Y9.567
X51.393 Y9.542
X48.37 Y9.542
X48.37 Y9.567
X48.345 Y9.567
X48.345 Y9.592
X48.32 Y9.592
X48.32 Y9.618
X48.294 Y9.618
X48.294 Y9.643
X48.269 Y9.643
X48.269 Y9.669
X48.243 Y9.669
X48.243 Y9.694
X48.218 Y9.694
X48.218 Y9.719
X48.193 Y9.719
X48.193 Y9.745
X48.167 Y9.745
X48.167 Y9.77
X48.142 Y9.77
X48.142 Y9.796
X48.116 Y9.796
X48.116 Y9.821
X48.091 Y9.821
X48.091 Y9.846
X48.066 Y9.846
X48.066 Y9.872
X48.04 Y9.872
X48.04 Y9.897
X48.015 Y9.897
X48.015 Y9.923
X47.989 Y9.923
X47.989 Y9.948
X47.964 Y9.948
X47.964 Y9.973
X47.939 Y9.973
X47.939 Y9.999
X47.913 Y9.999
X47.913 Y10.024
X47.888 Y10.024
X47.888 Y10.05
X47.862 Y10.05
X47.862 Y10.075
X47.837 Y10.075
X47.837 Y10.1
X47.812 Y10.1
X47.812 Y10.126
X47.786 Y10.126
X47.786 Y10.151
X47.761 Y10.151
X47.761 Y10.177
X47.735 Y10.177
X47.735 Y10.202
X47.71 Y10.202
X47.71 Y10.227
X47.685 Y10.227
X47.685 Y10.253
X47.659 Y10.253
X47.659 Y10.278
X47.634 Y10.278
X47.634 Y10.304
X47.608 Y10.304
X47.608 Y10.329
X47.583 Y10.329
X47.583 Y10.354
X47.558 Y10.354
X47.558 Y10.38
X47.532 Y10.38
X47.532 Y10.405
X47.507 Y10.405
X47.507 Y10.431
X47.481 Y10.431
X47.481 Y10.456
X47.456 Y10.456
X47.456 Y10.481
X47.431 Y10.481
X47.431 Y10.507
X47.405 Y10.507
X47.405 Y10.532
X47.38 Y10.532
X47.38 Y10.558
X47.354 Y10.558
X47.354 Y10.583
X47.329 Y10.583
X47.329 Y10.608
X47.304 Y10.608
X47.304 Y10.634
X47.278 Y10.634
X47.278 Y10.659
X47.253 Y10.659
X47.253 Y10.685
X47.227 Y10.685
X47.227 Y10.71
X47.202 Y10.71
X47.202 Y10.735
X47.177 Y10.735
X47.177 Y10.761
X47.151 Y10.761
X47.151 Y10.786
X47.126 Y10.786
X47.126 Y10.812
X47.1 Y10.812
X47.1 Y10.837
X47.075 Y10.837
X47.075 Y10.862
X47.05 Y10.862
X47.05 Y10.888
X47.024 Y10.888
X47.024 Y10.913
X46.999 Y10.913
X46.999 Y10.939
X46.973 Y10.939
X46.973 Y10.964
X46.948 Y10.964
X46.948 Y10.989
X46.923 Y10.989
X46.923 Y11.015
X46.897 Y11.015
X46.897 Y11.04
X46.872 Y11.04
X46.872 Y11.066
X46.846 Y11.066
X46.846 Y11.091
X46.821 Y11.091
X46.821 Y11.116
X46.796 Y11.116
X46.796 Y11.142
X46.77 Y11.142
X46.77 Y11.167
X46.745 Y11.167
X46.745 Y11.193
X46.719 Y11.193
X46.719 Y11.218
X46.694 Y11.218
X46.694 Y11.243
X46.669 Y11.243
X46.669 Y11.269
X46.643 Y11.269
X46.643 Y11.294
X46.618 Y11.294
X46.618 Y11.32
X46.592 Y11.32
X46.592 Y11.345
X46.567 Y11.345
X46.567 Y11.37
X46.542 Y11.37
X46.542 Y11.396
X46.516 Y11.396
X46.516 Y11.421
X46.491 Y11.421
X46.491 Y11.447
X46.465 Y11.447
X46.465 Y11.472
X46.44 Y11.472
X46.44 Y11.497
X46.415 Y11.497
X46.415 Y11.523
X46.389 Y11.523
X46.389 Y11.548
X46.364 Y11.548
X46.364 Y11.574
X46.338 Y11.574
X46.338 Y11.599
X46.313 Y11.599
X46.313 Y11.624
X46.288 Y11.624
X46.288 Y11.65
X46.262 Y11.65
X46.262 Y11.675
X46.237 Y11.675
X46.237 Y11.701
X46.211 Y11.701
X46.211 Y11.726
X46.186 Y11.726
X46.186 Y11.751
X46.161 Y11.751
X46.161 Y11.777
X46.135 Y11.777
X46.135 Y11.802
X46.11 Y11.802
X46.11 Y11.828
X46.084 Y11.828
X46.084 Y11.853
X46.059 Y11.853
X46.059 Y11.878
X46.034 Y11.878
X46.034 Y11.904
X46.008 Y11.904
X46.008 Y11.929
X45.983 Y11.929
X45.983 Y11.955
X45.957 Y11.955
X45.957 Y11.98
X45.932 Y11.98
X45.932 Y12.005
X45.907 Y12.005
X45.907 Y12.031
X45.881 Y12.031
X45.881 Y12.056
X45.856 Y12.056
X45.856 Y12.082
X45.83 Y12.082
X45.83 Y12.107
X45.805 Y12.107
X45.805 Y12.132
X45.78 Y12.132
X45.78 Y12.158
X45.754 Y12.158
X45.754 Y12.183
X45.729 Y12.183
X45.729 Y12.209
X45.703 Y12.209
X45.703 Y12.234
X45.678 Y12.234
X45.678 Y12.259
X45.653 Y12.259
X45.653 Y12.285
X45.627 Y12.285
X45.627 Y12.31
X45.602 Y12.31
X45.602 Y12.336
X45.576 Y12.336
X45.576 Y12.361
X45.551 Y12.361
X45.551 Y12.386
X45.526 Y12.386
X45.526 Y12.412
X45.5 Y12.412
X45.5 Y12.437
X45.475 Y12.437
X45.475 Y12.463
X45.449 Y12.463
X45.449 Y12.488
X45.424 Y12.488
X45.424 Y12.513
X45.399 Y12.513
X45.399 Y12.539
X45.373 Y12.539
X45.373 Y12.564
X45.348 Y12.564
X45.348 Y12.59
X45.322 Y12.59
X45.322 Y12.615
X45.297 Y12.615
X45.297 Y12.64
X45.272 Y12.64
X45.272 Y12.666
X45.246 Y12.666
X45.246 Y12.691
X45.221 Y12.691
X45.221 Y12.717
X45.195 Y12.717
X45.195 Y12.742
X45.17 Y12.742
X45.17 Y12.767
X45.145 Y12.767
X45.145 Y12.793
X45.119 Y12.793
X45.119 Y12.818
X45.094 Y12.818
X45.094 Y12.844
X45.068 Y12.844
X45.068 Y12.869
X45.043 Y12.869
X45.043 Y12.894
X45.018 Y12.894
X45.018 Y12.92
X44.992 Y12.92
X44.992 Y12.945
X44.967 Y12.945
X44.967 Y12.971
X44.941 Y12.971
X44.941 Y12.996
X44.916 Y12.996
X44.916 Y13.021
X44.891 Y13.021
X44.891 Y13.047
X44.865 Y13.047
X44.865 Y13.072
X44.84 Y13.072
X44.84 Y13.098
X44.814 Y13.098
X44.814 Y13.123
X44.789 Y13.123
X44.789 Y13.148
X44.764 Y13.148
X44.764 Y13.174
X44.738 Y13.174
X44.738 Y13.199
X44.713 Y13.199
X44.713 Y13.225
X44.687 Y13.225
X44.687 Y13.25
X44.662 Y13.25
X44.662 Y13.275
X44.637 Y13.275
X44.637 Y13.301
X44.611 Y13.301
X44.611 Y13.326
X44.586 Y13.326
X44.586 Y13.352
X44.56 Y13.352
X44.56 Y13.377
X44.535 Y13.377
X44.535 Y13.402
X44.51 Y13.402
X44.51 Y13.428
X44.484 Y13.428
X44.484 Y13.453
X44.459 Y13.453
X44.459 Y13.479
X44.433 Y13.479
X44.433 Y13.504
X44.408 Y13.504
X44.408 Y13.529
X44.383 Y13.529
X44.383 Y13.555
X44.357 Y13.555
X44.357 Y13.58
X44.332 Y13.58
X44.332 Y13.606
X44.306 Y13.606
X44.306 Y13.631
X44.281 Y13.631
X44.281 Y13.656
X44.256 Y13.656
X44.256 Y13.682
X44.23 Y13.682
X44.23 Y13.707
X44.205 Y13.707
X44.205 Y13.733
X44.179 Y13.733
X44.179 Y13.758
X44.154 Y13.758
X44.154 Y13.783
X44.129 Y13.783
X44.129 Y13.809
X44.103 Y13.809
X44.103 Y13.834
X44.078 Y13.834
X44.078 Y13.86
X44.052 Y13.86
X44.052 Y13.885
X44.027 Y13.885
X44.027 Y13.91
X44.002 Y13.91
X44.002 Y13.936
X43.976 Y13.936
X43.976 Y13.961
X43.951 Y13.961
X43.951 Y13.987
X43.925 Y13.987
X43.925 Y14.012
X43.9 Y14.012
X43.9 Y14.037
X43.875 Y14.037
X43.875 Y14.063
X43.849 Y14.063
X43.849 Y14.088
X43.824 Y14.088
X43.824 Y14.114
X43.798 Y14.114
X43.798 Y14.139
X43.773 Y14.139
X43.773 Y14.164
X43.748 Y14.164
X43.748 Y14.19
X43.722 Y14.19
X43.722 Y14.215
X43.697 Y14.215
X43.697 Y14.241
X43.671 Y14.241
X43.671 Y14.266
X43.646 Y14.266
X43.646 Y14.291
X43.621 Y14.291
X43.621 Y14.317
X43.595 Y14.317
X43.595 Y14.342
X43.544 Y14.342
X43.544 Y14.368
X43.519 Y14.368
X43.519 Y14.393
X43.468 Y14.393
X43.468 Y14.418
X43.417 Y14.418
X43.417 Y14.444
X43.367 Y14.444
X43.367 Y14.469
X43.316 Y14.469
X43.316 Y14.495
X43.29 Y14.495
X43.29 Y14.52
X43.24 Y14.52
X43.24 Y14.545
X43.189 Y14.545
X43.189 Y14.571
X43.138 Y14.571
X43.138 Y14.596
X42.071 Y14.596
X42.071 Y14.571
X42.02 Y14.571
X42.02 Y14.545
X41.97 Y14.545
X41.97 Y14.52
X41.893 Y14.52
X41.893 Y14.495
X41.843 Y14.495
X41.843 Y14.469
X41.792 Y14.469
X41.792 Y14.444
X41.741 Y14.444
X41.741 Y14.418
X41.69 Y14.418
X41.69 Y14.393
X41.665 Y14.393
X41.665 Y14.368
X41.639 Y14.368
X41.639 Y14.317
X41.614 Y14.317
X41.614 Y14.291
X41.589 Y14.291
X41.589 Y14.266
X41.563 Y14.266
X41.563 Y14.241
X41.538 Y14.241
X41.538 Y14.19
X41.512 Y14.19
X41.512 Y14.164
X41.487 Y14.164
X41.487 Y14.139
X41.462 Y14.139
X41.462 Y14.114
X41.436 Y14.114
X41.436 Y14.063
X41.411 Y14.063
X41.411 Y14.012
X41.385 Y14.012
X41.385 Y13.885
X41.36 Y13.885
X41.36 Y13.783
X41.335 Y13.783
X41.335 Y13.682
X41.309 Y13.682
X41.309 Y12.971
X41.335 Y12.971
X41.335 Y12.869
X41.36 Y12.869
X41.36 Y12.767
X41.385 Y12.767
X41.385 Y12.64
X41.411 Y12.64
X41.411 Y12.59
X41.436 Y12.59
X41.436 Y12.539
X41.462 Y12.539
X41.462 Y12.513
X41.487 Y12.513
X41.487 Y12.463
X41.512 Y12.463
X41.512 Y12.437
X41.538 Y12.437
X41.538 Y12.386
X41.563 Y12.386
X41.563 Y12.361
X41.589 Y12.361
X41.589 Y12.336
X41.614 Y12.336
X41.614 Y12.31
X41.639 Y12.31
X41.639 Y12.285
X41.665 Y12.285
X41.665 Y12.259
X41.69 Y12.259
X41.69 Y12.234
X41.716 Y12.234
X41.716 Y12.209
X41.741 Y12.209
X41.741 Y12.183
X41.766 Y12.183
X41.766 Y12.158
X41.792 Y12.158
X41.792 Y12.132
X41.817 Y12.132
X41.817 Y12.107
X41.843 Y12.107
X41.843 Y12.082
X41.868 Y12.082
X41.868 Y12.056
X41.893 Y12.056
X41.893 Y12.031
X41.919 Y12.031
X41.919 Y12.005
X41.944 Y12.005
X41.944 Y11.98
X41.97 Y11.98
X41.97 Y11.955
X41.995 Y11.955
X41.995 Y11.929
X42.02 Y11.929
X42.02 Y11.904
X42.046 Y11.904
X42.046 Y11.878
X42.071 Y11.878
X42.071 Y11.853
X42.097 Y11.853
X42.097 Y11.828
X42.122 Y11.828
X42.122 Y11.802
X42.147 Y11.802
X42.147 Y11.777
X42.173 Y11.777
X42.173 Y11.751
X42.198 Y11.751
X42.198 Y11.726
X42.224 Y11.726
X42.224 Y11.701
X42.249 Y11.701
X42.249 Y11.675
X42.274 Y11.675
X42.274 Y11.65
X42.3 Y11.65
X42.3 Y11.624
X42.325 Y11.624
X42.325 Y11.599
X42.351 Y11.599
X42.351 Y11.574
X42.376 Y11.574
X42.376 Y11.548
X42.401 Y11.548
X42.401 Y11.523
X42.427 Y11.523
X42.427 Y11.497
X42.452 Y11.497
X42.452 Y11.472
X42.478 Y11.472
X42.478 Y11.447
X42.503 Y11.447
X42.503 Y11.421
X42.528 Y11.421
X42.528 Y11.396
X42.554 Y11.396
X42.554 Y11.37
X42.579 Y11.37
X42.579 Y11.345
X42.605 Y11.345
X42.605 Y11.32
X42.63 Y11.32
X42.63 Y11.294
X42.655 Y11.294
X42.655 Y11.269
X42.681 Y11.269
X42.681 Y11.243
X42.706 Y11.243
X42.706 Y11.218
X42.732 Y11.218
X42.732 Y11.193
X42.757 Y11.193
X42.757 Y11.167
X42.782 Y11.167
X42.782 Y11.142
X42.808 Y11.142
X42.808 Y11.116
X42.833 Y11.116
X42.833 Y11.091
X42.859 Y11.091
X42.859 Y11.066
X42.884 Y11.066
X42.884 Y11.04
X42.909 Y11.04
X42.909 Y11.015
X42.935 Y11.015
X42.935 Y10.989
X42.96 Y10.989
X42.96 Y10.964
X42.986 Y10.964
X42.986 Y10.939
X43.011 Y10.939
X43.011 Y10.913
X43.036 Y10.913
X43.036 Y10.888
X43.062 Y10.888
X43.062 Y10.862
X43.087 Y10.862
X43.087 Y10.837
X43.113 Y10.837
X43.113 Y10.812
X43.138 Y10.812
X43.138 Y10.786
X43.163 Y10.786
X43.163 Y10.761
X43.189 Y10.761
X43.189 Y10.735
X43.214 Y10.735
X43.214 Y10.71
X43.24 Y10.71
X43.24 Y10.685
X43.265 Y10.685
X43.265 Y10.659
X43.29 Y10.659
X43.29 Y10.634
X43.316 Y10.634
X43.316 Y10.608
X43.341 Y10.608
X43.341 Y10.583
X43.367 Y10.583
X43.367 Y10.558
X43.392 Y10.558
X43.392 Y10.532
X43.417 Y10.532
X43.417 Y10.507
X43.443 Y10.507
X43.443 Y10.481
X43.468 Y10.481
X43.468 Y10.456
X43.494 Y10.456
X43.494 Y10.431
X43.519 Y10.431
X43.519 Y10.405
X43.544 Y10.405
X43.544 Y10.38
X43.57 Y10.38
X43.57 Y10.354
X43.595 Y10.354
X43.595 Y10.329
X43.621 Y10.329
X43.621 Y10.304
X43.646 Y10.304
X43.646 Y10.278
X43.671 Y10.278
X43.671 Y10.253
X43.697 Y10.253
X43.697 Y10.227
X43.722 Y10.227
X43.722 Y10.202
X43.748 Y10.202
X43.748 Y10.177
X43.773 Y10.177
X43.773 Y10.151
X43.798 Y10.151
X43.798 Y10.126
X43.824 Y10.126
X43.824 Y10.1
X43.849 Y10.1
X43.849 Y10.075
X43.875 Y10.075
X43.875 Y10.05
X43.9 Y10.05
X43.9 Y10.024
X43.925 Y10.024
X43.925 Y9.999
X43.951 Y9.999
X43.951 Y9.973
X43.976 Y9.973
X43.976 Y9.948
X44.002 Y9.948
X44.002 Y9.923
X44.027 Y9.923
X44.027 Y9.897
X44.052 Y9.897
X44.052 Y9.872
X44.078 Y9.872
X44.078 Y9.846
X44.103 Y9.846
X44.103 Y9.821
X44.129 Y9.821
X44.129 Y9.796
X44.154 Y9.796
X44.154 Y9.77
X44.179 Y9.77
X44.179 Y9.745
X44.205 Y9.745
X44.205 Y9.719
X44.23 Y9.719
X44.23 Y9.694
X44.256 Y9.694
X44.256 Y9.669
X44.281 Y9.669
X44.281 Y9.643
X44.306 Y9.643
X44.306 Y9.618
X44.332 Y9.618
X44.332 Y9.592
X44.357 Y9.592
X44.357 Y9.567
X44.383 Y9.567
X44.383 Y9.542
X44.408 Y9.542
X44.408 Y9.516
X44.433 Y9.516
X44.433 Y9.491
X44.459 Y9.491
X44.459 Y9.465
X44.484 Y9.465
X44.484 Y9.44
X44.51 Y9.44
X44.51 Y9.415
X44.535 Y9.415
X44.535 Y9.389
X44.56 Y9.389
X44.56 Y9.364
X44.586 Y9.364
X44.586 Y9.338
X44.611 Y9.338
X44.611 Y9.313
X44.637 Y9.313
X44.637 Y9.288
X44.662 Y9.288
X44.662 Y9.262
X44.687 Y9.262
X44.687 Y9.237
X44.713 Y9.237
X44.713 Y9.211
X44.738 Y9.211
X44.738 Y9.186
X44.764 Y9.186
X44.764 Y9.161
X44.789 Y9.161
X44.789 Y9.135
X44.814 Y9.135
X44.814 Y9.11
X44.84 Y9.11
X44.84 Y9.084
X44.865 Y9.084
X44.865 Y9.059
X44.891 Y9.059
X44.891 Y9.034
X44.916 Y9.034
X44.916 Y9.008
X44.941 Y9.008
X44.941 Y8.983
X44.967 Y8.983
X44.967 Y8.957
X44.992 Y8.957
X44.992 Y8.932
X45.018 Y8.932
X45.018 Y8.907
X45.043 Y8.907
X45.043 Y8.881
X45.068 Y8.881
X45.068 Y8.856
X45.094 Y8.856
X45.094 Y8.83
X45.119 Y8.83
X45.119 Y8.805
X45.145 Y8.805
X45.145 Y8.78
X45.17 Y8.78
X45.17 Y8.754
X45.195 Y8.754
X45.195 Y8.729
X45.221 Y8.729
X45.221 Y8.703
X45.246 Y8.703
X45.246 Y8.678
X45.272 Y8.678
X45.272 Y8.653
X45.297 Y8.653
X45.297 Y8.627
X45.322 Y8.627
X45.322 Y8.602
X45.348 Y8.602
X45.348 Y8.576
X45.373 Y8.576
X45.373 Y8.551
X45.399 Y8.551
X45.399 Y8.526
X45.424 Y8.526
X45.424 Y8.5
X45.449 Y8.5
X45.449 Y8.475
X45.475 Y8.475
X45.475 Y8.449
X45.5 Y8.449
X45.5 Y8.424
X45.526 Y8.424
X45.526 Y8.399
X45.551 Y8.399
X45.551 Y8.373
X45.576 Y8.373
X45.576 Y8.348
X45.602 Y8.348
X45.602 Y8.322
X45.627 Y8.322
X45.627 Y8.297
X45.653 Y8.297
X45.653 Y8.272
X45.678 Y8.272
X45.678 Y8.246
X45.703 Y8.246
X45.703 Y8.221
X45.729 Y8.221
X45.729 Y8.195
X45.754 Y8.195
X45.754 Y8.17
X45.78 Y8.17
X45.78 Y8.145
X45.805 Y8.145
X45.805 Y8.119
X45.83 Y8.119
X45.83 Y8.094
X45.856 Y8.094
X45.856 Y8.068
X45.881 Y8.068
X45.881 Y8.043
X45.907 Y8.043
X45.907 Y8.018
X45.932 Y8.018
X45.932 Y7.992
X45.957 Y7.992
X45.957 Y7.967
X45.983 Y7.967
X45.983 Y7.941
X46.008 Y7.941
X46.008 Y7.916
X46.034 Y7.916
X46.034 Y7.891
X46.059 Y7.891
X46.059 Y7.865
X46.084 Y7.865
X46.084 Y7.84
X46.11 Y7.84
X46.11 Y7.814
X46.135 Y7.814
X46.135 Y7.789
X46.161 Y7.789
X46.161 Y7.764
X46.186 Y7.764
X46.186 Y7.738
X46.211 Y7.738
X46.211 Y7.713
X46.237 Y7.713
X46.237 Y7.687
X46.262 Y7.687
X46.262 Y7.662
X46.288 Y7.662
X46.288 Y7.637
X46.313 Y7.637
X46.313 Y7.611
X46.338 Y7.611
X46.338 Y7.586
X46.364 Y7.586
X46.364 Y7.56
X46.389 Y7.56
X46.389 Y7.535
X46.415 Y7.535
X46.415 Y7.51
X46.44 Y7.51
X46.44 Y7.484
X46.465 Y7.484
X46.465 Y7.459
X46.491 Y7.459
X46.491 Y7.433
X46.516 Y7.433
X46.516 Y7.408
X46.542 Y7.408
X46.542 Y7.383
X46.567 Y7.383
X46.567 Y7.357
X46.592 Y7.357
X46.592 Y7.332
X46.618 Y7.332
X46.618 Y7.306
X46.643 Y7.306
X46.643 Y7.281
X46.669 Y7.281
X46.669 Y7.256
X46.694 Y7.256
X46.694 Y7.23
X46.719 Y7.23
X46.719 Y7.205
X46.745 Y7.205
X46.745 Y7.179
X46.77 Y7.179
X46.77 Y7.154
X46.821 Y7.154
X46.821 Y7.129
X46.872 Y7.129
X46.872 Y7.103
X46.923 Y7.103
X46.923 Y7.078
X46.973 Y7.078
X46.973 Y7.052
X47.024 Y7.052
X47.024 Y7.027
X47.1 Y7.027
X47.1 Y7.002
X47.151 Y7.002
X47.151 Y6.976
X48.091 Y6.976
X48.091 Y6.951
X51.418 Y6.951
X51.418 Y6.925
X51.444 Y6.925
X51.444 Y6.9
X51.469 Y6.9
X51.469 Y6.875
X51.495 Y6.875
X51.495 Y6.849
X51.545 Y6.849
X51.545 Y6.824
X51.571 Y6.824
X51.571 Y6.798
X51.596 Y6.798
X51.596 Y6.773
X51.622 Y6.773
X51.622 Y6.748
X51.647 Y6.748
X51.647 Y6.722
X51.698 Y6.722
X51.698 Y6.697
X51.723 Y6.697
X51.723 Y6.671
X51.774 Y6.671
X51.774 Y6.646
X51.825 Y6.646
X51.825 Y6.621
X51.901 Y6.621
X51.901 Y6.595
X51.977 Y6.595
X51.977 Y6.57
X52.053 Y6.57
X52.053 Y6.544
X52.104 Y6.544
X52.104 Y6.519
X52.18 Y6.519
X52.18 Y6.494
X53.374 Y6.494
X53.374 Y6.519
X53.45 Y6.519
X53.45 Y6.544
X53.501 Y6.544
X53.501 Y6.57
X53.577 Y6.57
X53.577 Y6.595
X53.654 Y6.595
X53.654 Y6.621
X53.73 Y6.621
X53.73 Y6.646
X53.781 Y6.646
X53.781 Y6.671
X53.831 Y6.671
X53.831 Y6.697
X53.882 Y6.697
X53.882 Y6.722
X53.908 Y6.722
X53.908 Y6.748
X53.933 Y6.748
X53.933 Y6.773
X53.958 Y6.773
X53.958 Y6.798
X54.009 Y6.798
X54.009 Y6.824
X54.035 Y6.824
X54.035 Y6.849
X54.06 Y6.849
X54.06 Y6.875
X54.111 Y6.875
X54.111 Y6.9
X54.136 Y6.9
X54.136 Y6.925
X54.162 Y6.925
X54.162 Y6.951
X54.187 Y6.951
X54.187 Y6.976
X54.212 Y6.976
X54.212 Y7.002
X54.238 Y7.002
X54.238 Y7.027
X54.263 Y7.027
X54.263 Y7.052
X54.289 Y7.052
X54.289 Y7.078
X54.314 Y7.078
X54.314 Y7.103
X54.339 Y7.103
X54.339 Y7.129
X54.365 Y7.129
X54.365 Y7.154
X54.39 Y7.154
X54.39 Y7.179
X54.416 Y7.179
X54.416 Y7.205
X54.441 Y7.205
X54.441 Y7.23
X54.466 Y7.23
X54.466 Y7.256
X54.492 Y7.256
X54.492 Y7.281
X54.517 Y7.281
X54.517 Y7.306
X54.543 Y7.306
X54.543 Y7.332
X54.568 Y7.332
X54.568 Y7.357
X54.593 Y7.357
X54.593 Y7.383
X54.619 Y7.383
X54.619 Y7.408
X54.644 Y7.408
X54.644 Y7.433
X54.67 Y7.433
X54.67 Y7.459
X54.695 Y7.459
X54.695 Y7.484
X54.72 Y7.484
X54.72 Y7.51
X54.746 Y7.51
X54.746 Y7.535
X54.771 Y7.535
X54.771 Y7.56
X54.797 Y7.56
X54.797 Y7.586
X54.822 Y7.586
X54.822 Y7.611
X54.847 Y7.611
X54.847 Y7.637
X54.873 Y7.637
X54.873 Y7.662
X54.898 Y7.662
X54.898 Y7.687
X54.924 Y7.687
X54.924 Y7.713
X54.949 Y7.713
X54.949 Y7.738
X54.974 Y7.738
X54.974 Y7.764
X55 Y7.764
X55 Y7.789
X55.025 Y7.789
X55.025 Y7.814
X55.051 Y7.814
X55.051 Y7.84
X55.076 Y7.84
X55.076 Y7.865
X55.101 Y7.865
X55.101 Y7.891
X55.127 Y7.891
X55.127 Y7.916
X55.152 Y7.916
X55.152 Y7.941
X55.178 Y7.941
X55.178 Y7.967
X55.203 Y7.967
X55.203 Y7.992
X55.228 Y7.992
X55.228 Y8.018
X55.254 Y8.018
X55.254 Y8.043
X55.279 Y8.043
X55.279 Y8.068
X55.305 Y8.068
X55.305 Y8.094
X55.33 Y8.094
X55.33 Y8.119
X55.355 Y8.119
X55.355 Y8.145
X55.381 Y8.145
X55.381 Y8.17
X55.406 Y8.17
X55.406 Y8.195
X55.432 Y8.195
X55.432 Y8.221
X55.457 Y8.221
X55.457 Y8.246
X55.482 Y8.246
X55.482 Y8.272
X55.508 Y8.272
X55.508 Y8.297
X55.533 Y8.297
X55.533 Y8.322
X55.559 Y8.322
X55.559 Y8.348
X55.584 Y8.348
X55.584 Y8.373
X55.609 Y8.373
X55.609 Y8.399
X55.635 Y8.399
X55.635 Y8.424
X55.66 Y8.424
X55.66 Y8.449
X55.686 Y8.449
X55.686 Y8.475
X55.711 Y8.475
X55.711 Y8.5
X55.736 Y8.5
X55.736 Y8.526
X55.762 Y8.526
X55.762 Y8.551
X55.787 Y8.551
X55.787 Y8.576
X55.813 Y8.576
X55.813 Y8.602
X55.838 Y8.602
X55.838 Y8.627
X55.863 Y8.627
X55.863 Y8.653
X55.889 Y8.653
X55.889 Y8.678
X55.914 Y8.678
X55.914 Y8.703
X55.94 Y8.703
X55.94 Y8.729
X55.965 Y8.729
X55.965 Y8.754
X55.99 Y8.754
X55.99 Y8.78
X56.016 Y8.78
X56.016 Y8.805
X56.041 Y8.805
X56.041 Y8.83
X56.067 Y8.83
X56.067 Y8.856
X56.092 Y8.856
X56.092 Y8.881
X56.117 Y8.881
X56.117 Y8.907
X56.143 Y8.907
X56.143 Y8.932
X56.168 Y8.932
X56.168 Y8.957
X56.194 Y8.957
X56.194 Y8.983
X56.219 Y8.983
X56.219 Y9.008
X56.244 Y9.008
X56.244 Y9.034
X56.27 Y9.034
X56.27 Y9.059
X56.295 Y9.059
X56.295 Y9.084
X56.321 Y9.084
X56.321 Y9.11
X56.346 Y9.11
X56.346 Y9.135
X56.371 Y9.135
X56.371 Y9.161
X56.397 Y9.161
X56.397 Y9.186
X56.422 Y9.186
X56.422 Y9.211
X56.448 Y9.211
X56.448 Y9.237
X56.473 Y9.237
X56.473 Y9.262
X56.498 Y9.262
X56.498 Y9.288
X56.524 Y9.288
X56.524 Y9.313
X56.549 Y9.313
X56.549 Y9.338
X56.575 Y9.338
X56.575 Y9.364
X56.6 Y9.364
X56.6 Y9.389
X56.625 Y9.389
X56.625 Y9.415
X56.651 Y9.415
X56.651 Y9.44
X56.676 Y9.44
X56.676 Y9.465
X56.702 Y9.465
X56.702 Y9.491
X56.727 Y9.491
X56.727 Y9.516
X56.752 Y9.516
X56.752 Y9.542
X56.778 Y9.542
X56.778 Y9.567
X56.803 Y9.567
X56.803 Y9.592
X56.829 Y9.592
X56.829 Y9.618
X56.854 Y9.618
X56.854 Y9.643
X56.879 Y9.643
X56.879 Y9.669
X56.905 Y9.669
X56.905 Y9.694
X56.93 Y9.694
X56.93 Y9.719
X56.956 Y9.719
X56.956 Y9.745
X56.981 Y9.745
X56.981 Y9.77
X57.006 Y9.77
X57.006 Y9.796
X57.032 Y9.796
X57.032 Y9.821
X57.057 Y9.821
X57.057 Y9.846
X57.083 Y9.846
X57.083 Y9.872
X57.108 Y9.872
X57.108 Y9.897
X57.133 Y9.897
X57.133 Y9.923
X57.159 Y9.923
X57.159 Y9.948
X57.184 Y9.948
X57.184 Y9.973
X57.21 Y9.973
X57.21 Y9.999
X57.235 Y9.999
X57.235 Y10.024
X57.26 Y10.024
X57.26 Y10.05
X57.286 Y10.05
X57.286 Y10.075
X57.311 Y10.075
X57.311 Y10.1
X57.337 Y10.1
X57.337 Y10.126
X57.362 Y10.126
X57.362 Y10.151
X57.387 Y10.151
X57.387 Y10.177
X57.413 Y10.177
X57.413 Y10.202
X57.438 Y10.202
X57.438 Y10.227
X57.464 Y10.227
X57.464 Y10.253
X57.489 Y10.253
X57.489 Y10.278
X57.514 Y10.278
X57.514 Y10.304
X57.54 Y10.304
X57.54 Y10.329
X57.565 Y10.329
X57.565 Y10.354
X57.591 Y10.354
X57.591 Y10.38
X57.616 Y10.38
X57.616 Y10.405
X57.641 Y10.405
X57.641 Y10.431
X57.667 Y10.431
X57.667 Y10.456
X57.692 Y10.456
X57.692 Y10.481
X57.718 Y10.481
X57.718 Y10.507
X57.743 Y10.507
X57.743 Y10.532
X57.768 Y10.532
X57.768 Y10.558
X57.794 Y10.558
X57.794 Y10.583
X57.819 Y10.583
X57.819 Y10.608
X57.845 Y10.608
X57.845 Y10.634
X57.87 Y10.634
X57.87 Y10.659
X57.895 Y10.659
X57.895 Y10.685
X57.921 Y10.685
X57.921 Y10.71
X57.946 Y10.71
X57.946 Y10.735
X57.972 Y10.735
X57.972 Y10.786
X58.022 Y10.786
X58.022 Y10.837
X58.048 Y10.837
X58.048 Y10.862
X58.073 Y10.862
X58.073 Y10.913
X58.099 Y10.913
X58.099 Y10.964
X58.124 Y10.964
X58.124 Y11.015
X58.149 Y11.015
X58.149 Y11.04
X58.175 Y11.04
X58.175 Y11.091
X58.2 Y11.091
X58.2 Y11.142
X58.226 Y11.142
X58.226 Y11.167
X58.251 Y11.167
X58.251 Y11.218
X58.276 Y11.218
X58.276 Y11.269
X58.302 Y11.269
X58.302 Y11.421
X58.327 Y11.421
X58.327 Y11.548
X58.353 Y11.548
X58.353 Y11.701
X58.378 Y11.701
X58.378 Y114.037
X58.353 Y114.037
X58.353 Y114.19
X58.327 Y114.19
X58.327 Y114.317
X58.302 Y114.317
X58.302 Y114.469
X58.276 Y114.469
X58.276 Y114.52
X58.251 Y114.52
X58.251 Y114.571
X58.226 Y114.571
X58.226 Y114.596
X58.2 Y114.596
X58.2 Y114.647
X58.175 Y114.647
X58.175 Y114.698
X58.149 Y114.698
X58.149 Y114.723
X58.124 Y114.723
X58.124 Y114.774
X58.099 Y114.774
X58.099 Y114.825
X58.073 Y114.825
X58.073 Y114.875
X58.048 Y114.875
X58.048 Y114.901
X58.022 Y114.901
X58.022 Y114.952
X57.972 Y114.952
X57.972 Y114.977
X57.946 Y114.977
X57.946 Y115.028
X57.921 Y115.028
X57.921 Y115.053
X57.895 Y115.053
X57.895 Y115.079
X57.87 Y115.079
X57.87 Y115.104
X57.845 Y115.104
X57.845 Y115.129
X57.819 Y115.129
X57.819 Y115.155
X57.794 Y115.155
X57.794 Y115.18
X57.768 Y115.18
X57.768 Y115.206
X57.743 Y115.206
X57.743 Y115.231
X57.718 Y115.231
X57.718 Y115.256
X57.692 Y115.256
X57.692 Y115.282
X57.667 Y115.282
X57.667 Y115.307
X57.641 Y115.307
X57.641 Y115.333
X57.616 Y115.333
X57.616 Y115.358
X57.591 Y115.358
X57.591 Y115.383
X57.565 Y115.383
X57.565 Y115.409
X57.54 Y115.409
X57.54 Y115.434
X57.514 Y115.434
X57.514 Y115.46
X57.489 Y115.46
X57.489 Y115.485
X57.464 Y115.485
X57.464 Y115.51
X57.438 Y115.51
X57.438 Y115.536
X57.413 Y115.536
X57.413 Y115.561
X57.387 Y115.561
X57.387 Y115.587
X57.362 Y115.587
X57.362 Y115.612
X57.337 Y115.612
X57.337 Y115.637
X57.311 Y115.637
X57.311 Y115.663
X57.286 Y115.663
X57.286 Y115.688
X57.26 Y115.688
X57.26 Y115.714
X57.235 Y115.714
X57.235 Y115.739
X57.21 Y115.739
X57.21 Y115.764
X57.184 Y115.764
X57.184 Y115.79
X57.159 Y115.79
X57.159 Y115.815
X57.133 Y115.815
X57.133 Y115.841
X57.108 Y115.841
X57.108 Y115.866
X57.083 Y115.866
X57.083 Y115.891
X57.057 Y115.891
X57.057 Y115.917
X57.032 Y115.917
X57.032 Y115.942
X57.006 Y115.942
X57.006 Y115.968
X56.981 Y115.968
X56.981 Y115.993
X56.956 Y115.993
X56.956 Y116.018
X56.93 Y116.018
X56.93 Y116.044
X56.905 Y116.044
X56.905 Y116.069
X56.879 Y116.069
X56.879 Y116.095
X56.854 Y116.095
X56.854 Y116.12
X56.829 Y116.12
X56.829 Y116.145
X56.803 Y116.145
X56.803 Y116.171
X56.778 Y116.171
X56.778 Y116.196
X56.752 Y116.196
X56.752 Y116.222
X56.727 Y116.222
X56.727 Y116.247
X56.702 Y116.247
X56.702 Y116.272
X56.676 Y116.272
X56.676 Y116.298
X56.651 Y116.298
X56.651 Y116.323
X56.625 Y116.323
X56.625 Y116.349
X56.6 Y116.349
X56.6 Y116.374
X56.575 Y116.374
X56.575 Y116.399
X56.549 Y116.399
X56.549 Y116.425
X56.524 Y116.425
X56.524 Y116.45
X56.498 Y116.45
X56.498 Y116.476
X56.473 Y116.476
X56.473 Y116.501
X56.448 Y116.501
X56.448 Y116.526
X56.422 Y116.526
X56.422 Y116.552
X56.397 Y116.552
X56.397 Y116.577
X56.371 Y116.577
X56.371 Y116.603
X56.346 Y116.603
X56.346 Y116.628
X56.321 Y116.628
X56.321 Y116.653
X56.295 Y116.653
X56.295 Y116.679
X56.27 Y116.679
X56.27 Y116.704
X56.244 Y116.704
X56.244 Y116.73
X56.219 Y116.73
X56.219 Y116.755
X56.194 Y116.755
X56.194 Y116.78
X56.168 Y116.78
X56.168 Y116.806
X56.143 Y116.806
X56.143 Y116.831
X56.117 Y116.831
X56.117 Y116.857
X56.092 Y116.857
X56.092 Y116.882
X56.067 Y116.882
X56.067 Y116.907
X56.041 Y116.907
X56.041 Y116.933
X56.016 Y116.933
X56.016 Y116.958
X55.99 Y116.958
X55.99 Y116.984
X55.965 Y116.984
X55.965 Y117.009
X55.94 Y117.009
X55.94 Y117.034
X55.914 Y117.034
X55.914 Y117.06
X55.889 Y117.06
X55.889 Y117.085
X55.863 Y117.085
X55.863 Y117.111
X55.838 Y117.111
X55.838 Y117.136
X55.813 Y117.136
X55.813 Y117.161
X55.787 Y117.161
X55.787 Y117.187
X55.762 Y117.187
X55.762 Y117.212
X55.736 Y117.212
X55.736 Y117.238
X55.711 Y117.238
X55.711 Y117.263
X55.686 Y117.263
X55.686 Y117.288
X55.66 Y117.288
X55.66 Y117.314
X55.635 Y117.314
X55.635 Y117.339
X55.609 Y117.339
X55.609 Y117.365
X55.584 Y117.365
X55.584 Y117.39
X55.559 Y117.39
X55.559 Y117.415
X55.533 Y117.415
X55.533 Y117.441
X55.508 Y117.441
X55.508 Y117.466
X55.482 Y117.466
X55.482 Y117.492
X55.457 Y117.492
X55.457 Y117.517
X55.432 Y117.517
X55.432 Y117.542
X55.406 Y117.542
X55.406 Y117.568
X55.381 Y117.568
X55.381 Y117.593
X55.355 Y117.593
X55.355 Y117.619
X55.33 Y117.619
X55.33 Y117.644
X55.305 Y117.644
X55.305 Y117.669
X55.279 Y117.669
X55.279 Y117.695
X55.254 Y117.695
X55.254 Y117.72
X55.228 Y117.72
X55.228 Y117.746
X55.203 Y117.746
X55.203 Y117.771
X55.178 Y117.771
X55.178 Y117.796
X55.152 Y117.796
X55.152 Y117.822
X55.127 Y117.822
X55.127 Y117.847
X55.101 Y117.847
X55.101 Y117.873
X55.076 Y117.873
X55.076 Y117.898
X55.051 Y117.898
X55.051 Y117.923
X55.025 Y117.923
X55.025 Y117.949
X55 Y117.949
X55 Y117.974
X54.974 Y117.974
X54.974 Y118
X54.949 Y118
X54.949 Y118.025
X54.924 Y118.025
X54.924 Y118.05
X54.898 Y118.05
X54.898 Y118.076
X54.873 Y118.076
X54.873 Y118.101
X54.847 Y118.101
X54.847 Y118.127
X54.822 Y118.127
X54.822 Y118.152
X54.797 Y118.152
X54.797 Y118.177
X54.771 Y118.177
X54.771 Y118.203
X54.746 Y118.203
X54.746 Y118.228
X54.72 Y118.228
X54.72 Y118.254
X54.695 Y118.254
X54.695 Y118.279
X54.67 Y118.279
X54.67 Y118.304
X54.644 Y118.304
X54.644 Y118.33
X54.619 Y118.33
X54.619 Y118.355
X54.593 Y118.355
X54.593 Y118.381
X54.568 Y118.381
X54.568 Y118.406
X54.543 Y118.406
X54.543 Y118.431
X54.517 Y118.431
X54.517 Y118.457
X54.492 Y118.457
X54.492 Y118.482
X54.466 Y118.482
X54.466 Y118.508
X54.441 Y118.508
X54.441 Y118.533
X54.416 Y118.533
X54.416 Y118.558
X54.39 Y118.558
X54.39 Y118.584
X54.365 Y118.584
X54.365 Y118.609
X54.339 Y118.609
X54.339 Y118.635
X54.314 Y118.635
X54.314 Y118.66
X54.289 Y118.66
X54.289 Y118.685
X54.263 Y118.685
X54.263 Y118.711
X54.238 Y118.711
X54.238 Y118.736
X54.212 Y118.736
X54.212 Y118.762
X54.187 Y118.762
X54.187 Y118.787
X54.162 Y118.787
X54.162 Y118.812
X54.136 Y118.812
X54.136 Y118.838
X54.111 Y118.838
X54.111 Y118.863
X54.06 Y118.863
X54.06 Y118.889
X54.035 Y118.889
X54.035 Y118.914
X54.009 Y118.914
X54.009 Y118.939
X53.958 Y118.939
X53.958 Y118.965
X53.933 Y118.965
X53.933 Y118.99
X53.908 Y118.99
X53.908 Y119.016
X53.882 Y119.016
X53.882 Y119.041
X53.831 Y119.041
X53.831 Y119.066
X53.781 Y119.066
X53.781 Y119.092
X53.73 Y119.092
X53.73 Y119.117
X53.654 Y119.117
X53.654 Y119.143
X53.577 Y119.143
X53.577 Y119.168
X53.501 Y119.168
X53.501 Y119.193
X53.45 Y119.193
X53.45 Y119.219
X53.374 Y119.219
X53.374 Y119.244
X53.12 Y119.244
X53.12 Y119.27
X47.253 Y119.27
X47.253 Y119.244
X47.1 Y119.244
X47.1 Y119.219
X47.075 Y119.219
X47.075 Y119.244
X47.05 Y119.244
X47.05 Y119.27
X47.024 Y119.27
X47.024 Y119.295
X46.999 Y119.295
X46.999 Y119.32
X46.973 Y119.32
X46.973 Y119.346
X46.948 Y119.346
X46.948 Y119.371
X46.923 Y119.371
X46.923 Y119.397
X46.897 Y119.397
X46.897 Y119.422
X46.872 Y119.422
X46.872 Y119.447
X46.846 Y119.447
X46.846 Y119.473
X46.821 Y119.473
X46.821 Y119.498
X46.796 Y119.498
X46.796 Y119.524
X46.77 Y119.524
X46.77 Y119.549
X46.745 Y119.549
X46.745 Y119.574
X46.719 Y119.574
X46.719 Y119.6
X46.694 Y119.6
X46.694 Y119.625
X46.669 Y119.625
X46.669 Y119.651
X46.643 Y119.651
X46.643 Y119.676
X46.618 Y119.676
X46.618 Y119.701
X46.592 Y119.701
X46.592 Y119.727
X46.567 Y119.727
X46.567 Y119.752
X46.542 Y119.752
X46.542 Y119.778
X46.516 Y119.778
X46.516 Y119.803
X46.491 Y119.803
X46.491 Y119.828
X46.465 Y119.828
X46.465 Y119.854
X46.44 Y119.854
X46.44 Y119.879
X46.415 Y119.879
X46.415 Y119.905
X46.389 Y119.905
X46.389 Y119.93
X46.364 Y119.93
X46.364 Y119.955
X46.338 Y119.955
X46.338 Y119.981
X46.313 Y119.981
X46.313 Y120.006
X46.288 Y120.006
X46.288 Y120.032
X46.262 Y120.032
X46.262 Y120.057
X46.237 Y120.057
X46.237 Y120.082
X46.211 Y120.082
X46.211 Y120.108
X46.186 Y120.108
X46.186 Y120.133
X46.161 Y120.133
X46.161 Y120.159
X46.135 Y120.159
X46.135 Y120.184
X46.11 Y120.184
X46.11 Y120.209
X46.084 Y120.209
X46.084 Y120.235
X46.059 Y120.235
X46.059 Y120.26
X46.034 Y120.26
X46.034 Y120.286
X46.008 Y120.286
X46.008 Y120.311
X45.983 Y120.311
X45.983 Y120.336
X45.957 Y120.336
X45.957 Y120.362
X45.932 Y120.362
X45.932 Y120.387
X45.907 Y120.387
X45.907 Y120.413
X45.881 Y120.413
X45.881 Y120.438
X45.856 Y120.438
X45.856 Y120.463
X45.83 Y120.463
X45.83 Y120.489
X45.805 Y120.489
X45.805 Y120.514
X45.78 Y120.514
X45.78 Y120.54
X45.754 Y120.54
X45.754 Y120.565
X45.729 Y120.565
X45.729 Y120.59
X45.678 Y120.59
X45.678 Y120.616
X45.653 Y120.616
X45.653 Y120.641
X45.602 Y120.641
X45.602 Y120.667
X45.475 Y120.667
X45.475 Y120.692
X34.629 Y120.692
X34.629 Y120.667
X34.553 Y120.667
X34.553 Y120.641
X34.502 Y120.641
X34.502 Y120.616
X34.477 Y120.616
X34.477 Y120.59
X34.426 Y120.59
X34.426 Y120.565
X34.4 Y120.565
X34.4 Y120.54
X34.375 Y120.54
X34.375 Y120.514
X34.35 Y120.514
X34.35 Y120.489
X34.324 Y120.489
X34.324 Y120.463
X34.299 Y120.463
X34.299 Y120.438
X34.273 Y120.438
X34.273 Y120.413
X34.248 Y120.413
X34.248 Y120.387
G00 Z1 ( retract )

G00 X21.548 Y120.387 ( rapid move to begin. )
G01 Z-0.15 F200 ( plunge. )
X21.548 Y120.387
X21.523 Y120.387
X21.523 Y120.362
X21.497 Y120.362
X21.497 Y120.336
X21.472 Y120.336
X21.472 Y120.311
X21.446 Y120.311
X21.446 Y120.286
X21.421 Y120.286
X21.421 Y120.26
X21.396 Y120.26
X21.396 Y120.235
X21.37 Y120.235
X21.37 Y120.209
X21.345 Y120.209
X21.345 Y120.184
X21.319 Y120.184
X21.319 Y120.159
X21.294 Y120.159
X21.294 Y120.133
X21.269 Y120.133
X21.269 Y120.108
X21.243 Y120.108
X21.243 Y120.082
X21.218 Y120.082
X21.218 Y120.057
X21.192 Y120.057
X21.192 Y120.032
X21.167 Y120.032
X21.167 Y120.006
X21.142 Y120.006
X21.142 Y119.981
X21.116 Y119.981
X21.116 Y119.955
X21.091 Y119.955
X21.091 Y119.93
X21.065 Y119.93
X21.065 Y119.905
X21.04 Y119.905
X21.04 Y119.879
X21.015 Y119.879
X21.015 Y119.854
X20.989 Y119.854
X20.989 Y119.828
X20.583 Y119.828
X20.583 Y119.803
X20.43 Y119.803
X20.43 Y119.778
X20.405 Y119.778
X20.405 Y119.752
X20.354 Y119.752
X20.354 Y119.727
X20.303 Y119.727
X20.303 Y119.701
X20.278 Y119.701
X20.278 Y119.676
X20.227 Y119.676
X20.227 Y119.651
X20.176 Y119.651
X20.176 Y119.6
X20.151 Y119.6
X20.151 Y119.574
X20.126 Y119.574
X20.126 Y119.549
X20.1 Y119.549
X20.1 Y119.498
X20.075 Y119.498
X20.075 Y119.473
X20.049 Y119.473
X20.049 Y119.447
X20.024 Y119.447
X20.024 Y119.397
X19.999 Y119.397
X19.999 Y119.32
X19.973 Y119.32
X19.973 Y119.244
X19.948 Y119.244
X19.948 Y118.254
X19.973 Y118.254
X19.973 Y118.152
X19.999 Y118.152
X19.999 Y118.101
X20.024 Y118.101
X20.024 Y118.05
X20.049 Y118.05
X20.049 Y118.025
X20.075 Y118.025
X20.075 Y118
X20.1 Y118
X20.1 Y117.949
X20.126 Y117.949
X20.126 Y117.923
X20.151 Y117.923
X20.151 Y117.898
X20.176 Y117.898
X20.176 Y117.847
X20.227 Y117.847
X20.227 Y117.822
X20.278 Y117.822
X20.278 Y117.796
X20.303 Y117.796
X20.303 Y117.771
X20.354 Y117.771
X20.354 Y117.746
X20.405 Y117.746
X20.405 Y117.72
X20.43 Y117.72
X20.43 Y117.695
X20.583 Y117.695
X20.583 Y117.669
X21.472 Y117.669
X21.472 Y117.695
X21.624 Y117.695
X21.624 Y117.72
X21.65 Y117.72
X21.65 Y117.746
X21.7 Y117.746
X21.7 Y117.771
X21.751 Y117.771
X21.751 Y117.796
X21.777 Y117.796
X21.777 Y117.822
X21.827 Y117.822
X21.827 Y117.847
X21.878 Y117.847
X21.878 Y117.898
X21.904 Y117.898
X21.904 Y117.923
X21.929 Y117.923
X21.929 Y117.949
X21.954 Y117.949
X21.954 Y118
X21.98 Y118
X21.98 Y118.025
X22.005 Y118.025
X22.005 Y118.05
X22.031 Y118.05
X22.031 Y118.101
X22.056 Y118.101
X22.056 Y118.152
X22.081 Y118.152
X22.081 Y118.254
X22.107 Y118.254
X22.107 Y118.711
X22.132 Y118.711
X22.132 Y118.736
X22.158 Y118.736
X22.158 Y118.762
X22.183 Y118.762
X22.183 Y118.787
X22.208 Y118.787
X22.208 Y118.812
X22.234 Y118.812
X22.234 Y118.838
X22.259 Y118.838
X22.259 Y118.863
X22.285 Y118.863
X22.285 Y118.889
X22.31 Y118.889
X22.31 Y118.914
X22.335 Y118.914
X22.335 Y118.939
X22.361 Y118.939
X22.361 Y118.965
X22.386 Y118.965
X22.386 Y118.99
X22.412 Y118.99
X22.412 Y119.016
X22.437 Y119.016
X22.437 Y119.041
X22.462 Y119.041
X22.462 Y119.066
X22.488 Y119.066
X22.488 Y119.092
X22.513 Y119.092
X22.513 Y119.117
X22.539 Y119.117
X22.539 Y119.143
X22.564 Y119.143
X22.564 Y119.168
X22.589 Y119.168
X22.589 Y119.193
X22.615 Y119.193
X22.615 Y119.219
X22.64 Y119.219
X22.64 Y119.244
X22.666 Y119.244
X22.666 Y119.27
X22.691 Y119.27
X22.691 Y119.295
X22.716 Y119.295
X22.716 Y119.32
X22.742 Y119.32
X22.742 Y119.346
X25.053 Y119.346
X25.053 Y119.371
X26.526 Y119.371
X26.526 Y119.346
X29.473 Y119.346
X29.473 Y119.32
X29.498 Y119.32
X29.498 Y119.295
X29.524 Y119.295
X29.524 Y119.27
X29.549 Y119.27
X29.549 Y119.244
X29.574 Y119.244
X29.574 Y119.219
X29.6 Y119.219
X29.6 Y119.193
X29.625 Y119.193
X29.625 Y119.168
X29.651 Y119.168
X29.651 Y119.143
X29.676 Y119.143
X29.676 Y119.117
X29.701 Y119.117
X29.701 Y119.092
X29.727 Y119.092
X29.727 Y119.066
X29.752 Y119.066
X29.752 Y118.406
X29.778 Y118.406
X29.778 Y118.33
X29.803 Y118.33
X29.803 Y118.254
X29.828 Y118.254
X29.828 Y117.898
X31.022 Y117.898
X31.022 Y118.254
X31.048 Y118.254
X31.048 Y118.33
X31.073 Y118.33
X31.073 Y118.406
X31.098 Y118.406
X31.098 Y119.854
X31.073 Y119.854
X31.073 Y119.93
X31.048 Y119.93
X31.048 Y120.006
X31.022 Y120.006
X31.022 Y120.032
X30.997 Y120.032
X30.997 Y120.082
X30.971 Y120.082
X30.971 Y120.108
X30.946 Y120.108
X30.946 Y120.133
X30.921 Y120.133
X30.921 Y120.159
X30.895 Y120.159
X30.895 Y120.184
X30.87 Y120.184
X30.87 Y120.209
X30.844 Y120.209
X30.844 Y120.235
X30.819 Y120.235
X30.819 Y120.26
X30.794 Y120.26
X30.794 Y120.286
X30.768 Y120.286
X30.768 Y120.311
X30.743 Y120.311
X30.743 Y120.336
X30.717 Y120.336
X30.717 Y120.362
X30.692 Y120.362
X30.692 Y120.387
X30.667 Y120.387
X30.667 Y120.413
X30.641 Y120.413
X30.641 Y120.438
X30.616 Y120.438
X30.616 Y120.463
X30.59 Y120.463
X30.59 Y120.489
X30.565 Y120.489
X30.565 Y120.514
X30.54 Y120.514
X30.54 Y120.54
X30.514 Y120.54
X30.514 Y120.565
X30.489 Y120.565
X30.489 Y120.59
X30.438 Y120.59
X30.438 Y120.616
X30.413 Y120.616
X30.413 Y120.641
X30.362 Y120.641
X30.362 Y120.667
X30.235 Y120.667
X30.235 Y120.692
X21.929 Y120.692
X21.929 Y120.667
X21.853 Y120.667
X21.853 Y120.641
X21.802 Y120.641
X21.802 Y120.616
X21.777 Y120.616
X21.777 Y120.59
X21.726 Y120.59
X21.726 Y120.565
X21.7 Y120.565
X21.7 Y120.54
X21.675 Y120.54
X21.675 Y120.514
X21.65 Y120.514
X21.65 Y120.489
X21.624 Y120.489
X21.624 Y120.463
X21.599 Y120.463
X21.599 Y120.438
X21.573 Y120.438
X21.573 Y120.413
X21.548 Y120.413
X21.548 Y120.387
G00 Z1 ( retract )

G00 X17.56 Y119.524 ( rapid move to begin. )
G01 Z-0.15 F200 ( plunge. )
X17.56 Y119.524
X17.56 Y119.498
X17.535 Y119.498
X17.535 Y119.473
X17.509 Y119.473
X17.509 Y119.447
X17.484 Y119.447
X17.484 Y119.397
X17.459 Y119.397
X17.459 Y119.32
X17.433 Y119.32
X17.433 Y119.244
X17.408 Y119.244
X17.408 Y118.254
X17.433 Y118.254
X17.433 Y118.152
X17.459 Y118.152
X17.459 Y118.101
X17.484 Y118.101
X17.484 Y118.05
X17.509 Y118.05
X17.509 Y118.025
X17.535 Y118.025
X17.535 Y118
X17.56 Y118
X17.56 Y117.949
X17.586 Y117.949
X17.586 Y117.923
X17.611 Y117.923
X17.611 Y117.898
X17.636 Y117.898
X17.636 Y117.847
X17.687 Y117.847
X17.687 Y117.822
X17.738 Y117.822
X17.738 Y117.796
X17.763 Y117.796
X17.763 Y117.771
X17.814 Y117.771
X17.814 Y117.136
X17.84 Y117.136
X17.84 Y117.06
X17.865 Y117.06
X17.865 Y116.984
X17.89 Y116.984
X17.89 Y116.958
X17.916 Y116.958
X17.916 Y116.907
X17.941 Y116.907
X17.941 Y116.882
X17.967 Y116.882
X17.967 Y116.857
X17.992 Y116.857
X17.992 Y116.831
X18.017 Y116.831
X18.017 Y116.806
X18.043 Y116.806
X18.043 Y116.78
X18.068 Y116.78
X18.068 Y116.755
X18.094 Y116.755
X18.094 Y116.73
X18.119 Y116.73
X18.119 Y116.704
X18.144 Y116.704
X18.144 Y116.679
X18.17 Y116.679
X18.17 Y116.653
X18.195 Y116.653
X18.195 Y116.628
X18.221 Y116.628
X18.221 Y116.603
X18.246 Y116.603
X18.246 Y116.577
X18.271 Y116.577
X18.271 Y116.552
X18.297 Y116.552
X18.297 Y116.526
X18.322 Y116.526
X18.322 Y116.501
X18.348 Y116.501
X18.348 Y116.476
X18.373 Y116.476
X18.373 Y116.45
X18.398 Y116.45
X18.398 Y116.425
X18.424 Y116.425
X18.424 Y116.399
X18.449 Y116.399
X18.449 Y116.374
X18.475 Y116.374
X18.475 Y116.349
X18.5 Y116.349
X18.5 Y116.323
X18.525 Y116.323
X18.525 Y116.298
X18.551 Y116.298
X18.551 Y116.272
X18.602 Y116.272
X18.602 Y116.247
X18.627 Y116.247
X18.627 Y116.222
X18.678 Y116.222
X18.678 Y116.196
X18.754 Y116.196
X18.754 Y116.171
X22.539 Y116.171
X22.539 Y116.196
X22.615 Y116.196
X22.615 Y116.222
X22.666 Y116.222
X22.666 Y116.247
X22.691 Y116.247
X22.691 Y116.272
X22.742 Y116.272
X22.742 Y116.298
X22.767 Y116.298
X22.767 Y116.323
X22.793 Y116.323
X22.793 Y116.349
X22.818 Y116.349
X22.818 Y116.374
X22.843 Y116.374
X22.843 Y116.399
X22.869 Y116.399
X22.869 Y116.425
X22.894 Y116.425
X22.894 Y116.45
X22.92 Y116.45
X22.92 Y116.476
X22.945 Y116.476
X22.945 Y116.501
X22.97 Y116.501
X22.97 Y116.526
X22.996 Y116.526
X22.996 Y116.552
X23.021 Y116.552
X23.021 Y116.577
X23.047 Y116.577
X23.047 Y116.603
X23.072 Y116.603
X23.072 Y116.628
X23.402 Y116.628
X23.402 Y117.034
X23.428 Y117.034
X23.428 Y117.085
X23.453 Y117.085
X23.453 Y117.161
X23.478 Y117.161
X23.478 Y117.822
X23.453 Y117.822
X23.453 Y117.898
X23.428 Y117.898
X23.428 Y117.974
X23.402 Y117.974
X23.402 Y118.33
X22.208 Y118.33
X22.208 Y118
X22.183 Y118
X22.183 Y117.974
X22.158 Y117.974
X22.158 Y117.949
X22.132 Y117.949
X22.132 Y117.923
X22.107 Y117.923
X22.107 Y117.898
X22.081 Y117.898
X22.081 Y117.873
X22.056 Y117.873
X22.056 Y117.847
X22.031 Y117.847
X22.031 Y117.822
X22.005 Y117.822
X22.005 Y117.796
X21.98 Y117.796
X21.98 Y117.771
X21.954 Y117.771
X21.954 Y117.746
X21.929 Y117.746
X21.929 Y117.72
X21.904 Y117.72
X21.904 Y117.695
X21.878 Y117.695
X21.878 Y117.669
X21.853 Y117.669
X21.853 Y117.644
X21.827 Y117.644
X21.827 Y117.619
X21.802 Y117.619
X21.802 Y117.593
X21.777 Y117.593
X21.777 Y117.568
X21.751 Y117.568
X21.751 Y117.542
X21.726 Y117.542
X21.726 Y117.517
X19.567 Y117.517
X19.567 Y117.542
X19.541 Y117.542
X19.541 Y117.568
X19.516 Y117.568
X19.516 Y117.593
X19.491 Y117.593
X19.491 Y117.619
X19.465 Y117.619
X19.465 Y117.644
X19.44 Y117.644
X19.44 Y117.669
X19.414 Y117.669
X19.414 Y117.695
X19.389 Y117.695
X19.389 Y117.72
X19.364 Y117.72
X19.364 Y117.746
X19.338 Y117.746
X19.338 Y117.771
X19.313 Y117.771
X19.313 Y117.796
X19.287 Y117.796
X19.287 Y117.822
X19.287 Y117.822
X19.287 Y117.847
X19.338 Y117.847
X19.338 Y117.898
X19.364 Y117.898
X19.364 Y117.923
X19.389 Y117.923
X19.389 Y117.949
X19.414 Y117.949
X19.414 Y118
X19.44 Y118
X19.44 Y118.025
X19.465 Y118.025
X19.465 Y118.05
X19.491 Y118.05
X19.491 Y118.101
X19.516 Y118.101
X19.516 Y118.152
X19.541 Y118.152
X19.541 Y118.254
X19.567 Y118.254
X19.567 Y119.244
X19.541 Y119.244
X19.541 Y119.346
X19.516 Y119.346
X19.516 Y119.397
X19.491 Y119.397
X19.491 Y119.447
X19.465 Y119.447
X19.465 Y119.473
X19.44 Y119.473
X19.44 Y119.498
X19.414 Y119.498
X19.414 Y119.549
X19.389 Y119.549
X19.389 Y119.574
X19.364 Y119.574
X19.364 Y119.6
X19.338 Y119.6
X19.338 Y119.651
X19.287 Y119.651
X19.287 Y119.676
X19.237 Y119.676
X19.237 Y119.701
X19.211 Y119.701
X19.211 Y119.727
X19.16 Y119.727
X19.16 Y119.752
X19.11 Y119.752
X19.11 Y119.778
X19.084 Y119.778
X19.084 Y119.803
X18.932 Y119.803
X18.932 Y119.828
X18.043 Y119.828
X18.043 Y119.803
X17.89 Y119.803
X17.89 Y119.778
X17.865 Y119.778
X17.865 Y119.752
X17.814 Y119.752
X17.814 Y119.727
X17.763 Y119.727
X17.763 Y119.701
X17.738 Y119.701
X17.738 Y119.676
X17.687 Y119.676
X17.687 Y119.651
X17.636 Y119.651
X17.636 Y119.6
X17.611 Y119.6
X17.611 Y119.574
X17.586 Y119.574
X17.586 Y119.549
X17.56 Y119.549
X17.56 Y119.524
G00 Z1 ( retract )

G00 X14.842 Y119.524 ( rapid move to begin. )
G01 Z-0.15 F200 ( plunge. )
X14.842 Y119.524
X14.842 Y119.422
X14.868 Y119.422
X14.868 Y117.669
X15.147 Y117.669
X15.147 Y117.136
X15.173 Y117.136
X15.173 Y117.06
X15.198 Y117.06
X15.198 Y116.984
X15.223 Y116.984
X15.223 Y116.907
X15.249 Y116.907
X15.249 Y116.857
X15.274 Y116.857
X15.274 Y116.831
X15.3 Y116.831
X15.3 Y116.806
X15.325 Y116.806
X15.325 Y116.78
X15.35 Y116.78
X15.35 Y116.755
X15.376 Y116.755
X15.376 Y116.73
X15.401 Y116.73
X15.401 Y116.704
X15.427 Y116.704
X15.427 Y116.679
X15.452 Y116.679
X15.452 Y116.653
X15.477 Y116.653
X15.477 Y116.628
X15.503 Y116.628
X15.503 Y116.603
X15.528 Y116.603
X15.528 Y116.577
X15.554 Y116.577
X15.554 Y116.552
X15.579 Y116.552
X15.579 Y116.526
X15.604 Y116.526
X15.604 Y116.501
X15.63 Y116.501
X15.63 Y116.476
X15.655 Y116.476
X15.655 Y116.45
X15.681 Y116.45
X15.681 Y116.425
X15.706 Y116.425
X15.706 Y116.399
X15.731 Y116.399
X15.731 Y116.374
X15.757 Y116.374
X15.757 Y116.349
X15.782 Y116.349
X15.782 Y116.323
X15.808 Y116.323
X15.808 Y116.298
X15.833 Y116.298
X15.833 Y116.272
X15.858 Y116.272
X15.858 Y116.247
X15.884 Y116.247
X15.884 Y116.222
X15.909 Y116.222
X15.909 Y116.196
X15.935 Y116.196
X15.935 Y116.171
X15.96 Y116.171
X15.96 Y116.145
X15.985 Y116.145
X15.985 Y116.12
X16.011 Y116.12
X16.011 Y116.095
X16.036 Y116.095
X16.036 Y116.069
X16.062 Y116.069
X16.062 Y116.044
X16.087 Y116.044
X16.087 Y116.018
X16.112 Y116.018
X16.112 Y115.993
X16.138 Y115.993
X16.138 Y115.968
X16.163 Y115.968
X16.163 Y115.942
X16.189 Y115.942
X16.189 Y115.917
X16.214 Y115.917
X16.214 Y115.891
X16.239 Y115.891
X16.239 Y115.866
X16.265 Y115.866
X16.265 Y115.841
X16.29 Y115.841
X16.29 Y115.815
X16.316 Y115.815
X16.316 Y115.79
X16.341 Y115.79
X16.341 Y115.764
X16.366 Y115.764
X16.366 Y115.739
X16.392 Y115.739
X16.392 Y115.714
X16.417 Y115.714
X16.417 Y115.688
X16.443 Y115.688
X16.443 Y115.663
X16.468 Y115.663
X16.468 Y115.637
X16.493 Y115.637
X16.493 Y115.612
X16.519 Y115.612
X16.519 Y115.587
X16.544 Y115.587
X16.544 Y115.561
X16.57 Y115.561
X16.57 Y115.536
X16.595 Y115.536
X16.595 Y115.51
X16.62 Y115.51
X16.62 Y115.485
X16.646 Y115.485
X16.646 Y115.46
X16.671 Y115.46
X16.671 Y115.434
X16.697 Y115.434
X16.697 Y115.409
X16.722 Y115.409
X16.722 Y115.383
X16.747 Y115.383
X16.747 Y115.358
X16.773 Y115.358
X16.773 Y115.333
X16.798 Y115.333
X16.798 Y115.307
X16.824 Y115.307
X16.824 Y115.282
X16.849 Y115.282
X16.849 Y115.256
X16.874 Y115.256
X16.874 Y115.231
X16.9 Y115.231
X16.9 Y115.206
X16.925 Y115.206
X16.925 Y115.18
X16.951 Y115.18
X16.951 Y115.155
X16.976 Y115.155
X16.976 Y115.129
X17.001 Y115.129
X17.001 Y115.104
X17.027 Y115.104
X17.027 Y115.079
X17.052 Y115.079
X17.052 Y115.053
X17.078 Y115.053
X17.078 Y115.028
X17.103 Y115.028
X17.103 Y115.002
X17.103 Y115.002
X17.103 Y114.977
X17.078 Y114.977
X17.078 Y114.952
X17.052 Y114.952
X17.052 Y114.926
X17.027 Y114.926
X17.027 Y114.901
X17.001 Y114.901
X17.001 Y114.875
X16.976 Y114.875
X16.976 Y114.85
X16.951 Y114.85
X16.951 Y114.825
X16.925 Y114.825
X16.925 Y114.799
X16.9 Y114.799
X16.9 Y114.774
X16.874 Y114.774
X16.874 Y114.748
X16.849 Y114.748
X16.849 Y114.723
X16.824 Y114.723
X16.824 Y114.698
X16.798 Y114.698
X16.798 Y114.672
X16.773 Y114.672
X16.773 Y114.647
X16.747 Y114.647
X16.747 Y114.621
X16.722 Y114.621
X16.722 Y114.596
X16.697 Y114.596
X16.697 Y114.571
X16.671 Y114.571
X16.671 Y114.545
X16.646 Y114.545
X16.646 Y114.52
X16.62 Y114.52
X16.62 Y114.494
X16.595 Y114.494
X16.595 Y114.469
X16.57 Y114.469
X16.57 Y114.444
X16.544 Y114.444
X16.544 Y114.418
X16.519 Y114.418
X16.519 Y114.393
X16.493 Y114.393
X16.493 Y114.367
X16.468 Y114.367
X16.468 Y114.342
X16.443 Y114.342
X16.443 Y114.317
X16.417 Y114.317
X16.417 Y114.291
X16.392 Y114.291
X16.392 Y114.266
X16.366 Y114.266
X16.366 Y114.24
X16.341 Y114.24
X16.341 Y114.215
X16.316 Y114.215
X16.316 Y114.19
X16.29 Y114.19
X16.29 Y114.164
X16.265 Y114.164
X16.265 Y114.139
X16.239 Y114.139
X16.239 Y114.113
X16.214 Y114.113
X16.214 Y114.088
X16.189 Y114.088
X16.189 Y114.063
X16.163 Y114.063
X16.163 Y114.037
X16.138 Y114.037
X16.138 Y114.012
X16.112 Y114.012
X16.112 Y113.986
X16.087 Y113.986
X16.087 Y113.961
X16.062 Y113.961
X16.062 Y113.936
X16.036 Y113.936
X16.036 Y113.91
X16.011 Y113.91
X16.011 Y113.885
X15.985 Y113.885
X15.985 Y113.859
X15.96 Y113.859
X15.96 Y113.834
X15.935 Y113.834
X15.935 Y113.809
X15.909 Y113.809
X15.909 Y113.783
X15.884 Y113.783
X15.884 Y113.758
X15.858 Y113.758
X15.858 Y113.732
X15.833 Y113.732
X15.833 Y113.707
X15.808 Y113.707
X15.808 Y113.682
X15.782 Y113.682
X15.782 Y113.656
X15.757 Y113.656
X15.757 Y113.631
X15.731 Y113.631
X15.731 Y113.605
X15.706 Y113.605
X15.706 Y113.58
X15.681 Y113.58
X15.681 Y113.555
X15.655 Y113.555
X15.655 Y113.529
X15.63 Y113.529
X15.63 Y113.504
X15.604 Y113.504
X15.604 Y113.478
X15.579 Y113.478
X15.579 Y113.453
X15.554 Y113.453
X15.554 Y113.428
X15.528 Y113.428
X15.528 Y113.402
X15.503 Y113.402
X15.503 Y113.377
X15.477 Y113.377
X15.477 Y113.351
X15.452 Y113.351
X15.452 Y113.326
X15.427 Y113.326
X15.427 Y113.301
X15.401 Y113.301
X15.401 Y113.275
X15.376 Y113.275
X15.376 Y113.25
X15.35 Y113.25
X15.35 Y113.224
X15.325 Y113.224
X15.325 Y113.199
X15.3 Y113.199
X15.3 Y113.174
X15.274 Y113.174
X15.274 Y113.148
X15.249 Y113.148
X15.249 Y113.123
X15.223 Y113.123
X15.223 Y113.097
X15.198 Y113.097
X15.198 Y113.072
X15.173 Y113.072
X15.173 Y113.047
X15.147 Y113.047
X15.147 Y113.021
X15.122 Y113.021
X15.122 Y112.996
X15.096 Y112.996
X15.096 Y112.97
X15.071 Y112.97
X15.071 Y112.945
X15.046 Y112.945
X15.046 Y112.92
X15.02 Y112.92
X15.02 Y112.894
X14.995 Y112.894
X14.995 Y112.869
X14.969 Y112.869
X14.969 Y112.843
X14.944 Y112.843
X14.944 Y112.818
X14.919 Y112.818
X14.919 Y112.793
X14.893 Y112.793
X14.893 Y112.767
X14.868 Y112.767
X14.868 Y112.742
X14.842 Y112.742
X14.842 Y112.716
X14.817 Y112.716
X14.817 Y112.691
X14.792 Y112.691
X14.792 Y112.666
X14.766 Y112.666
X14.766 Y112.64
X14.741 Y112.64
X14.741 Y112.615
X14.715 Y112.615
X14.715 Y112.589
X14.69 Y112.589
X14.69 Y112.564
X14.665 Y112.564
X14.665 Y112.539
X14.639 Y112.539
X14.639 Y112.513
X14.614 Y112.513
X14.614 Y112.488
X14.588 Y112.488
X14.588 Y112.462
X14.563 Y112.462
X14.563 Y112.437
X14.538 Y112.437
X14.538 Y112.412
X14.512 Y112.412
X14.512 Y112.386
X14.487 Y112.386
X14.487 Y112.361
X14.461 Y112.361
X14.461 Y112.335
X14.436 Y112.335
X14.436 Y112.31
X14.411 Y112.31
X14.411 Y112.285
X14.385 Y112.285
X14.385 Y112.259
X14.36 Y112.259
X14.36 Y112.234
X14.334 Y112.234
X14.334 Y112.208
X14.309 Y112.208
X14.309 Y112.183
X14.284 Y112.183
X14.284 Y112.158
X14.258 Y112.158
X14.258 Y112.132
X14.233 Y112.132
X14.233 Y112.107
X14.207 Y112.107
X14.207 Y112.081
X14.182 Y112.081
X14.182 Y112.056
X14.157 Y112.056
X14.157 Y112.031
X14.131 Y112.031
X14.131 Y112.005
X14.106 Y112.005
X14.106 Y111.98
X14.08 Y111.98
X14.08 Y111.954
X14.055 Y111.954
X14.055 Y111.929
X14.03 Y111.929
X14.03 Y111.904
X14.004 Y111.904
X14.004 Y111.878
X13.979 Y111.878
X13.979 Y111.853
X13.953 Y111.853
X13.953 Y111.827
X13.928 Y111.827
X13.928 Y111.802
X13.903 Y111.802
X13.903 Y111.777
X13.877 Y111.777
X13.877 Y111.751
X13.852 Y111.751
X13.852 Y111.726
X13.826 Y111.726
X13.826 Y111.7
X13.801 Y111.7
X13.801 Y111.675
X13.776 Y111.675
X13.776 Y111.65
X13.75 Y111.65
X13.75 Y111.624
X13.725 Y111.624
X13.725 Y111.599
X13.699 Y111.599
X13.699 Y111.573
X13.674 Y111.573
X13.674 Y111.548
X13.649 Y111.548
X13.649 Y111.523
X13.623 Y111.523
X13.623 Y111.497
X13.598 Y111.497
X13.598 Y111.472
X13.572 Y111.472
X13.572 Y111.446
X13.547 Y111.446
X13.547 Y111.421
X13.522 Y111.421
X13.522 Y111.396
X13.496 Y111.396
X13.496 Y111.37
X13.471 Y111.37
X13.471 Y111.345
X13.445 Y111.345
X13.445 Y111.319
X13.42 Y111.319
X13.42 Y111.294
X13.395 Y111.294
X13.395 Y111.269
X13.369 Y111.269
X13.369 Y111.243
X13.344 Y111.243
X13.344 Y111.218
X13.318 Y111.218
X13.318 Y111.192
X13.293 Y111.192
X13.293 Y111.167
X13.268 Y111.167
X13.268 Y111.142
X13.242 Y111.142
X13.242 Y111.116
X13.217 Y111.116
X13.217 Y111.091
X13.191 Y111.091
X13.191 Y111.065
X13.166 Y111.065
X13.166 Y111.04
X13.141 Y111.04
X13.141 Y111.015
X13.115 Y111.015
X13.115 Y110.989
X13.09 Y110.989
X13.09 Y110.964
X13.064 Y110.964
X13.064 Y110.938
X13.039 Y110.938
X13.039 Y110.913
X13.014 Y110.913
X13.014 Y110.888
X12.988 Y110.888
X12.988 Y110.862
X12.963 Y110.862
X12.963 Y110.837
X12.937 Y110.837
X12.937 Y110.811
X12.912 Y110.811
X12.912 Y110.786
X12.887 Y110.786
X12.887 Y110.761
X12.861 Y110.761
X12.861 Y110.735
X12.836 Y110.735
X12.836 Y110.71
X12.81 Y110.71
X12.81 Y110.684
X12.785 Y110.684
X12.785 Y110.659
X12.76 Y110.659
X12.76 Y110.634
X12.734 Y110.634
X12.734 Y110.608
X12.709 Y110.608
X12.709 Y110.583
X12.683 Y110.583
X12.683 Y110.557
X12.658 Y110.557
X12.658 Y110.532
X12.633 Y110.532
X12.633 Y110.507
X12.607 Y110.507
X12.607 Y110.481
X12.582 Y110.481
X12.582 Y110.456
X12.556 Y110.456
X12.556 Y110.43
X12.531 Y110.43
X12.531 Y110.405
X12.506 Y110.405
X12.506 Y110.38
X12.48 Y110.38
X12.48 Y110.354
X12.455 Y110.354
X12.455 Y110.329
X12.429 Y110.329
X12.429 Y110.303
X12.404 Y110.303
X12.404 Y110.278
X12.379 Y110.278
X12.379 Y110.253
X12.353 Y110.253
X12.353 Y110.227
X12.328 Y110.227
X12.328 Y110.202
X12.302 Y110.202
X12.302 Y110.176
X12.277 Y110.176
X12.277 Y110.151
X12.252 Y110.151
X12.252 Y110.126
X12.226 Y110.126
X12.226 Y110.1
X12.201 Y110.1
X12.201 Y110.075
X12.175 Y110.075
X12.175 Y110.049
X12.15 Y110.049
X12.15 Y110.024
X12.125 Y110.024
X12.125 Y109.999
X12.099 Y109.999
X12.099 Y109.973
X12.074 Y109.973
X12.074 Y109.948
X12.048 Y109.948
X12.048 Y109.897
X12.023 Y109.897
X12.023 Y109.872
X11.972 Y109.872
X11.972 Y109.821
X11.947 Y109.821
X11.947 Y109.795
X11.921 Y109.795
X11.921 Y109.745
X11.896 Y109.745
X11.896 Y109.694
X11.871 Y109.694
X11.871 Y109.643
X11.845 Y109.643
X11.845 Y109.618
X11.82 Y109.618
X11.82 Y109.567
X11.794 Y109.567
X11.794 Y109.516
X11.769 Y109.516
X11.769 Y109.491
X11.744 Y109.491
X11.744 Y109.44
X11.718 Y109.44
X11.718 Y109.389
X11.693 Y109.389
X11.693 Y109.237
X11.667 Y109.237
X11.667 Y109.084
X11.642 Y109.084
X11.642 Y108.957
X11.617 Y108.957
X11.617 Y94.251
X11.642 Y94.251
X11.642 Y94.124
X11.667 Y94.124
X11.667 Y93.971
X11.693 Y93.971
X11.693 Y93.819
X11.718 Y93.819
X11.718 Y93.768
X11.744 Y93.768
X11.744 Y93.717
X11.769 Y93.717
X11.769 Y93.692
X11.794 Y93.692
X11.794 Y93.641
X11.82 Y93.641
X11.82 Y93.59
X11.845 Y93.59
X11.845 Y93.565
X11.871 Y93.565
X11.871 Y93.514
X11.896 Y93.514
X11.896 Y93.463
X11.921 Y93.463
X11.921 Y93.412
X11.947 Y93.412
X11.947 Y93.387
X11.972 Y93.387
X11.972 Y93.336
X12.023 Y93.336
X12.023 Y93.311
X12.048 Y93.311
X12.048 Y93.26
X12.074 Y93.26
X12.074 Y93.235
X12.099 Y93.235
X12.099 Y93.209
X12.125 Y93.209
X12.125 Y93.184
X12.15 Y93.184
X12.15 Y93.158
X12.175 Y93.158
X12.175 Y93.133
X12.201 Y93.133
X12.201 Y93.108
X12.226 Y93.108
X12.226 Y93.082
X12.252 Y93.082
X12.252 Y93.057
X12.277 Y93.057
X12.277 Y93.031
X12.302 Y93.031
X12.302 Y93.006
X12.328 Y93.006
X12.328 Y92.981
X12.353 Y92.981
X12.353 Y92.955
X12.379 Y92.955
X12.379 Y92.93
X12.404 Y92.93
X12.404 Y92.904
X12.429 Y92.904
X12.429 Y92.879
X12.455 Y92.879
X12.455 Y92.854
X12.48 Y92.854
X12.48 Y92.828
X12.506 Y92.828
X12.506 Y92.803
X12.531 Y92.803
X12.531 Y92.777
X12.556 Y92.777
X12.556 Y92.752
X12.582 Y92.752
X12.582 Y92.727
X12.607 Y92.727
X12.607 Y92.701
X12.633 Y92.701
X12.633 Y92.676
X12.658 Y92.676
X12.658 Y92.65
X12.683 Y92.65
X12.683 Y92.625
X12.709 Y92.625
X12.709 Y92.6
X12.734 Y92.6
X12.734 Y92.574
X12.76 Y92.574
X12.76 Y92.549
X12.785 Y92.549
X12.785 Y92.523
X12.81 Y92.523
X12.81 Y92.498
X12.836 Y92.498
X12.836 Y92.473
X12.861 Y92.473
X12.861 Y92.447
X12.887 Y92.447
X12.887 Y92.422
X12.912 Y92.422
X12.912 Y92.396
X12.937 Y92.396
X12.937 Y92.371
X12.963 Y92.371
X12.963 Y92.346
X12.988 Y92.346
X12.988 Y92.32
X13.014 Y92.32
X13.014 Y92.295
X13.039 Y92.295
X13.039 Y92.269
X13.064 Y92.269
X13.064 Y92.244
X13.09 Y92.244
X13.09 Y92.219
X13.115 Y92.219
